;FLAVOR:Marlin
;TIME:1311
;Filament used: 1.62781m
;Layer height: 0.2
;Generated with Cura_SteamEngine 3.2.1
M190 S50
M104 S190
M109 S190
M82 ;absolute extrusion mode
G21 ;metric values
G90 ;absolute positioning
M82 ;set extruder to absolute mode
M107 ;start with the fan off
G28 X0 Y0 ;move X/Y to min endstops
G28 Z0 ;move Z to min endstops
G1 Z15.0 F9000 ;move the platform down 15mm
G92 E0 ;zero the extruded length
G1 F200 E3 ;extrude 3mm of feed stock
G92 E0 ;zero the extruded length again
G1 F9000
;Put printing message on LCD screen
M117 Printing...
;LAYER_COUNT:57
;LAYER:-6
M107
G0 F3600 X75.802 Y75.556 Z0.36
G1 F1350 X75.927 Y75.436 E0.02099
G1 X76.598 Y74.833 E0.13025
G1 X77.426 Y74.187 E0.25745
G1 X77.585 Y74.074 E0.28107
G1 X78.323 Y73.584 E0.38836
G1 X79.243 Y73.062 E0.51648
G1 X79.393 Y72.984 E0.53695
G1 X80.208 Y72.601 E0.64602
G1 X81.21 Y72.212 E0.7762
G1 X81.36 Y72.16 E0.79543
G1 X82.21 Y71.905 E0.90292
G1 X82.383 Y71.858 E0.92463
G1 X83.278 Y71.658 E1.0357
G1 X84.313 Y71.501 E1.16249
G1 X84.482 Y71.483 E1.18308
G1 X85.555 Y71.408 E1.31335
G1 X86.06 Y71.4 E1.37452
G1 X114.003 Y71.401 E4.75889
G1 X115.127 Y71.446 E4.89513
G1 X116.219 Y71.573 E5.02828
G1 X117.231 Y71.765 E5.15304
G1 X118.125 Y71.999 E5.26496
G1 X119.13 Y72.335 E5.39331
G1 X119.296 Y72.398 E5.41481
G1 X120.099 Y72.739 E5.52048
G1 X120.288 Y72.827 E5.54573
G1 X121.082 Y73.236 E5.6539
G1 X121.199 Y73.301 E5.67011
G1 X121.978 Y73.776 E5.78062
G1 X122.129 Y73.876 E5.80256
G1 X122.991 Y74.5 E5.93144
G1 X123.682 Y75.076 E6.0404
G1 X123.795 Y75.177 E6.05875
G1 X124.444 Y75.802 E6.16788
G1 X124.564 Y75.927 E6.18887
G1 X125.167 Y76.598 E6.29813
G1 X125.822 Y77.438 E6.42714
G1 X125.916 Y77.569 E6.44667
G1 X126.416 Y78.323 E6.55625
G1 X126.938 Y79.243 E6.68436
G1 X127.016 Y79.393 E6.70484
G1 X127.399 Y80.208 E6.81391
G1 X127.788 Y81.21 E6.94409
G1 X127.84 Y81.36 E6.96332
G1 X128.095 Y82.21 E7.0708
G1 X128.142 Y82.383 E7.09251
G1 X128.34 Y83.269 E7.20247
G1 X128.498 Y84.307 E7.32964
G1 X128.516 Y84.469 E7.34938
G1 X128.592 Y85.555 E7.48123
G1 X128.6 Y86.056 E7.54192
G1 X128.6 Y90.986 E8.13903
G1 X128.554 Y92.127 E8.27733
G1 X128.427 Y93.219 E8.41048
G1 X128.235 Y94.231 E8.53524
G1 X128.004 Y95.116 E8.64602
G1 X127.952 Y95.288 E8.66778
G1 X127.666 Y96.13 E8.77548
G1 X127.602 Y96.296 E8.79703
G1 X127.261 Y97.099 E8.9027
G1 X127.18 Y97.274 E8.92605
G1 X126.699 Y98.199 E9.05233
G1 X126.224 Y98.978 E9.16283
G1 X126.124 Y99.129 E9.18477
G1 X125.5 Y99.991 E9.31365
G1 X124.924 Y100.682 E9.42261
G1 X124.823 Y100.795 E9.44097
G1 X124.198 Y101.444 E9.55009
G1 X124.073 Y101.564 E9.57108
G1 X123.403 Y102.166 E9.68017
G1 X122.574 Y102.813 E9.80754
G1 X122.415 Y102.926 E9.83116
G1 X121.677 Y103.416 E9.93846
G1 X120.757 Y103.938 E10.06657
G1 X120.606 Y104.016 E10.08716
G1 X119.792 Y104.399 E10.19611
G1 X118.79 Y104.788 E10.3263
G1 X118.64 Y104.84 E10.34552
G1 X117.79 Y105.095 E10.45301
G1 X117.617 Y105.142 E10.47472
G1 X116.722 Y105.342 E10.58579
G1 X115.687 Y105.499 E10.71258
G1 X115.519 Y105.517 E10.73305
G1 X114.445 Y105.592 E10.86344
G1 X113.94 Y105.6 E10.92461
G1 X110.987 Y105.6 E11.28227
G1 X110.319 Y105.642 E11.36334
G1 X109.648 Y105.771 E11.44609
G1 X108.999 Y105.984 E11.52882
G1 X108.382 Y106.276 E11.6115
G1 X107.807 Y106.644 E11.69418
G1 X107.283 Y107.082 E11.7769
G1 X106.819 Y107.582 E11.85952
G1 X106.42 Y108.138 E11.9424
G1 X106.096 Y108.738 E12.02499
G1 X105.85 Y109.374 E12.10758
G1 X105.684 Y110.043 E12.19107
G1 X105.6 Y110.982 E12.30525
G1 X105.6 Y113.986 E12.66908
G1 X105.554 Y115.127 E12.80739
G1 X105.427 Y116.219 E12.94054
G1 X105.235 Y117.231 E13.0653
G1 X105.004 Y118.116 E13.17608
G1 X104.952 Y118.288 E13.19784
G1 X104.676 Y119.1 E13.30171
G1 X104.596 Y119.309 E13.32882
G1 X104.18 Y120.274 E13.45609
G1 X103.764 Y121.082 E13.56616
G1 X103.699 Y121.199 E13.58238
G1 X103.224 Y121.978 E13.69288
G1 X103.124 Y122.129 E13.71482
G1 X102.5 Y122.991 E13.8437
G1 X101.924 Y123.682 E13.95266
G1 X101.823 Y123.795 E13.97102
G1 X101.198 Y124.444 E14.08014
G1 X101.073 Y124.564 E14.10113
G1 X100.403 Y125.166 E14.21022
G1 X99.574 Y125.813 E14.33759
G1 X99.415 Y125.926 E14.36121
G1 X98.677 Y126.416 E14.46851
G1 X97.757 Y126.938 E14.59662
G1 X97.606 Y127.016 E14.6172
G1 X96.792 Y127.399 E14.72616
G1 X95.79 Y127.788 E14.85634
G1 X95.64 Y127.84 E14.87557
G1 X94.79 Y128.095 E14.98306
G1 X94.617 Y128.142 E15.00477
G1 X93.722 Y128.342 E15.11584
G1 X92.687 Y128.499 E15.24263
G1 X92.519 Y128.517 E15.26309
G1 X91.445 Y128.592 E15.39349
G1 X90.94 Y128.6 E15.45466
G1 X85.997 Y128.599 E16.05334
G1 X84.873 Y128.554 E16.18959
G1 X83.781 Y128.427 E16.32274
G1 X82.769 Y128.235 E16.44749
G1 X81.875 Y128.001 E16.55942
G1 X80.87 Y127.665 E16.68777
G1 X80.704 Y127.602 E16.70927
G1 X79.901 Y127.261 E16.81493
G1 X79.712 Y127.173 E16.84018
G1 X78.918 Y126.764 E16.94836
G1 X78.801 Y126.699 E16.96457
G1 X78.022 Y126.224 E17.07508
G1 X77.871 Y126.124 E17.09701
G1 X77.009 Y125.5 E17.2259
G1 X76.318 Y124.924 E17.33485
G1 X76.205 Y124.823 E17.35321
G1 X75.556 Y124.198 E17.46234
G1 X75.436 Y124.073 E17.48332
G1 X74.833 Y123.402 E17.59259
G1 X74.178 Y122.562 E17.7216
G1 X73.581 Y121.672 E17.8514
G1 X73.056 Y120.746 E17.98032
G1 X72.984 Y120.607 E17.99928
G1 X72.587 Y119.761 E18.11247
G1 X72.212 Y118.79 E18.23854
G1 X72.155 Y118.625 E18.25968
G1 X71.905 Y117.79 E18.36525
G1 X71.858 Y117.617 E18.38696
G1 X71.657 Y116.716 E18.49877
G1 X71.5 Y115.678 E18.62592
G1 X71.483 Y115.518 E18.64541
G1 X71.408 Y114.445 E18.77568
G1 X71.4 Y113.944 E18.83637
G1 X71.4 Y86.014 E22.21916
G1 X71.446 Y84.873 E22.35747
G1 X71.573 Y83.781 E22.49062
G1 X71.765 Y82.769 E22.61538
G1 X71.996 Y81.884 E22.72616
G1 X72.048 Y81.712 E22.74792
G1 X72.334 Y80.87 E22.85562
G1 X72.398 Y80.704 E22.87717
G1 X72.739 Y79.901 E22.98283
G1 X72.82 Y79.726 E23.00619
G1 X73.236 Y78.918 E23.11626
G1 X73.301 Y78.801 E23.13247
G1 X73.776 Y78.022 E23.24298
G1 X73.876 Y77.871 E23.26491
G1 X74.5 Y77.009 E23.3938
G1 X75.076 Y76.318 E23.50275
G1 X75.177 Y76.205 E23.52111
G1 X75.802 Y75.556 E23.63024
G0 F3600 X75.2 Y76.181
G1 F1350 X75.2 Y123.81 E29.39891
G0 F3600 X76.8 Y125.325
G1 F1350 X76.8 Y74.675 E35.53347
G0 F3600 X78.4 Y73.54
G1 F1350 X78.4 Y126.454 E41.94224
G0 F3600 X80 Y127.303
G1 F1350 X80 Y72.698 E48.55582
G0 F3600 X81.6 Y72.088
G1 F1350 X81.6 Y127.909 E55.31667
G0 F3600 X83.2 Y128.316
G1 F1350 X83.2 Y71.675 E62.17684
G0 F3600 X84.8 Y71.46
G1 F1350 X84.8 Y128.545 E69.09079
G0 F3600 X86.4 Y128.599
G1 F1350 X86.4 Y71.401 E76.01843
G0 F3600 X88 Y71.401
G1 F1350 X88 Y128.599 E82.94606
G0 F3600 X89.6 Y128.599
G1 F1350 X89.6 Y71.401 E89.8737
G0 F3600 X91.2 Y71.401
G1 F1350 X91.2 Y128.596 E96.80097
G0 F3600 X92.8 Y128.482
G1 F1350 X92.8 Y71.401 E103.71443
G0 F3600 X94.4 Y71.401
G1 F1350 X94.4 Y128.191 E110.59265
G0 F3600 X96 Y127.707
G1 F1350 X96 Y71.401 E117.41225
G0 F3600 X97.6 Y71.401
G1 F1350 X97.6 Y127.019 E124.14852
G0 F3600 X99.2 Y126.069
G1 F1350 X99.2 Y71.401 E130.76973
G0 F3600 X100.8 Y71.401
G1 F1350 X100.8 Y124.81 E137.23845
G0 F3600 X102.4 Y123.111
G1 F1350 X102.4 Y71.401 E143.50139
G0 F3600 X104 Y71.401
G1 F1350 X104 Y120.624 E149.46312
G0 F3600 X105.6 Y113.986
G1 F1350 X105.6 Y71.401 E154.62088
G0 F3600 X107.2 Y71.401
G1 F1350 X107.2 Y107.172 E158.95335
G0 F3600 X108.8 Y106.079
G1 F1350 X108.8 Y71.401 E163.15343
G0 F3600 X110.4 Y71.401
G1 F1350 X110.4 Y105.637 E167.29998
G0 F3600 X112 Y105.6
G1 F1350 X112 Y71.401 E171.44205
G0 F3600 X113.6 Y71.401
G1 F1350 X113.6 Y105.6 E175.58412
G0 F3600 X115.2 Y105.54
G1 F1350 X115.2 Y71.455 E179.71239
G0 F3600 X116.8 Y71.684
G1 F1350 X116.8 Y105.325 E183.78688
G0 F3600 X118.4 Y104.912
G1 F1350 X118.4 Y72.091 E187.76205
G0 F3600 X120 Y72.697
G1 F1350 X120 Y104.302 E191.58994
G0 F3600 X121.6 Y103.46
G1 F1350 X121.6 Y73.546 E195.21303
G0 F3600 X123.2 Y74.675
G1 F1350 X123.2 Y102.325 E198.5619
G0 F3600 X124.8 Y100.819
G1 F1350 X124.8 Y76.19 E201.54489
G0 F3600 X126.4 Y78.299
G1 F1350 X126.4 Y98.69 E204.01458
G0 F3600 X128 Y95.13
G1 F1350 X128 Y81.894 E205.61768
G0 F3600 X73.6 Y78.31
G1 F1350 X73.6 Y121.7 E210.87294
G0 F3600 X72 Y118.107
G1 F1350 X72 Y81.87 E215.26184
G0 F3600 X73.58 Y121.671
;TIME_ELAPSED:83.931447
;LAYER:-5
M140 S50
G0 X73.58 Y121.671 Z0.66
;TYPE:SUPPORT
G1 F1350 X74.178 Y122.561 E215.37006
G1 X74.833 Y123.401 E215.47757
G1 X75.436 Y124.072 E215.56863
G1 X75.555 Y124.197 E215.58605
G1 X76.204 Y124.822 E215.67699
G1 X76.318 Y124.923 E215.69236
G1 X77.008 Y125.499 E215.78308
G1 X77.87 Y126.123 E215.89048
G1 X78.022 Y126.222 E215.90879
G1 X78.324 Y126.407 E215.94454
G1 X73.57 Y121.654 E216.62304
G1 X73.056 Y120.744 E216.72852
G1 X72.984 Y120.606 E216.74423
G1 X72.586 Y119.76 E216.8386
G1 X72.269 Y118.938 E216.92752
G1 X81.058 Y127.727 E218.18204
G1 X81.874 Y128 E218.26889
G1 X82.768 Y128.234 E218.36216
G1 X83.028 Y128.283 E218.38886
G1 X71.713 Y116.968 E220.00393
G1 X71.656 Y116.715 E220.03011
G1 X71.499 Y115.677 E220.13607
G1 X71.482 Y115.517 E220.15231
G1 X71.467 Y115.308 E220.17346
G1 X84.691 Y128.532 E222.06102
G1 X84.872 Y128.553 E222.07941
G1 X85.996 Y128.598 E222.19294
G1 X86.172 Y128.598 E222.21071
G1 X71.399 Y113.825 E224.31937
G1 X71.399 Y112.411 E224.46208
G1 X87.586 Y128.598 E226.77257
G1 X89 Y128.598 E226.91529
G1 X71.399 Y110.997 E229.42761
G1 X71.399 Y109.583 E229.57033
G1 X90.414 Y128.598 E232.28448
G1 X90.94 Y128.599 E232.33757
G1 X91.445 Y128.59 E232.38855
G1 X91.796 Y128.566 E232.42406
G1 X71.399 Y108.168 E235.33554
G1 X71.399 Y106.754 E235.47826
G1 X93.082 Y128.438 E238.57331
G1 X93.721 Y128.341 E238.63854
G1 X94.275 Y128.216 E238.69586
G1 X71.399 Y105.34 E241.96112
G1 X71.399 Y103.926 E242.10384
G1 X95.387 Y127.914 E245.52782
G1 X95.64 Y127.839 E245.55446
G1 X95.789 Y127.787 E245.57039
G1 X96.426 Y127.539 E245.63938
G1 X71.399 Y102.512 E249.21167
G1 X71.399 Y101.097 E249.35449
G1 X97.408 Y127.107 E253.06701
G1 X97.605 Y127.015 E253.08896
G1 X97.756 Y126.937 E253.10611
G1 X98.328 Y126.612 E253.17251
G1 X71.399 Y99.683 E257.01629
G1 X71.399 Y98.269 E257.15901
G1 X99.198 Y126.068 E261.12696
G1 X99.414 Y125.925 E261.15311
G1 X99.574 Y125.811 E261.17294
G1 X100.013 Y125.469 E261.2291
G1 X71.399 Y96.855 E265.31339
G1 X71.399 Y95.441 E265.45611
G1 X100.782 Y124.824 E269.65016
G1 X101.073 Y124.563 E269.68962
G1 X101.197 Y124.443 E269.70703
G1 X101.501 Y124.129 E269.75114
G1 X71.399 Y94.026 E274.0479
G1 X71.399 Y92.612 E274.19061
G1 X102.171 Y123.385 E278.583
G1 X102.5 Y122.99 E278.63489
G1 X102.79 Y122.589 E278.68483
G1 X71.399 Y91.198 E283.16551
G1 X71.399 Y89.784 E283.30822
G1 X103.363 Y121.748 E287.87068
G1 X103.698 Y121.198 E287.93568
G1 X103.764 Y121.081 E287.94924
G1 X103.882 Y120.853 E287.97515
G1 X71.399 Y88.369 E292.61176
G1 X71.399 Y86.955 E292.75448
G1 X104.342 Y119.898 E297.45667
G1 X104.595 Y119.308 E297.52147
G1 X104.675 Y119.099 E297.54405
G1 X104.747 Y118.89 E297.56637
G1 X71.417 Y85.559 E302.32388
G1 X71.446 Y84.872 E302.39328
G1 X71.518 Y84.246 E302.45688
G1 X105.083 Y117.811 E307.24786
G1 X105.235 Y117.23 E307.30847
G1 X105.344 Y116.657 E307.36734
G1 X71.715 Y83.029 E312.16739
G1 X71.764 Y82.768 E312.19419
G1 X71.993 Y81.892 E312.28558
G1 X105.52 Y115.419 E317.07113
G1 X105.554 Y115.126 E317.10091
G1 X105.596 Y114.081 E317.20646
G1 X72.347 Y80.832 E321.95234
G1 X72.397 Y80.703 E321.9663
G1 X72.738 Y79.9 E322.05436
G1 X72.766 Y79.838 E322.06122
G1 X105.6 Y112.671 E326.74779
G1 X105.6 Y111.256 E326.89061
G1 X73.244 Y78.901 E331.50895
G1 X73.3 Y78.8 E331.52061
G1 X73.775 Y78.021 E331.61269
G0 F3600 X73.776 Y78.019
G1 F1350 X105.707 Y109.95 E336.17044
G1 X105.85 Y109.373 E336.23044
G1 X106.044 Y108.872 E336.28467
G1 X74.365 Y77.194 E340.80637
G1 X74.5 Y77.008 E340.82957
G1 X74.997 Y76.411 E340.90797
G1 X106.546 Y107.961 E345.41127
G1 X106.819 Y107.581 E345.45849
G1 X107.186 Y107.186 E345.51291
G1 X75.68 Y75.68 E350.01
G1 X75.801 Y75.556 E350.02748
G1 X75.926 Y75.435 E350.04504
G1 X76.412 Y74.998 E350.11101
G1 X107.959 Y106.545 E354.61395
G1 X108.381 Y106.276 E354.66446
G1 X108.871 Y106.043 E354.71922
G1 X77.195 Y74.367 E359.24057
G1 X77.425 Y74.186 E359.27011
G1 X77.584 Y74.074 E359.28974
G1 X78.024 Y73.782 E359.34304
G1 X109.954 Y105.711 E363.90057
G1 X110.318 Y105.641 E363.93799
G1 X110.986 Y105.6 E364.00554
G1 X111.256 Y105.6 E364.03279
G1 X78.908 Y73.252 E368.65006
G1 X79.241 Y73.061 E368.6888
G1 X79.391 Y72.984 E368.70582
G1 X79.843 Y72.772 E368.75621
G1 X112.671 Y105.6 E373.44199
G1 X113.939 Y105.6 E373.56997
G1 X114.082 Y105.597 E373.58441
G1 X80.84 Y72.355 E378.32929
G1 X81.209 Y72.211 E378.36927
G1 X81.359 Y72.16 E378.38526
G1 X81.898 Y71.999 E378.44203
G1 X115.423 Y105.523 E383.22723
G1 X115.518 Y105.517 E383.23684
G1 X115.686 Y105.498 E383.25391
G1 X116.664 Y105.35 E383.35374
G1 X83.027 Y71.714 E388.15493
G1 X83.277 Y71.658 E388.18079
G1 X84.24 Y71.512 E388.27909
G1 X117.814 Y105.086 E393.07136
G1 X118.639 Y104.839 E393.15828
G1 X118.788 Y104.788 E393.17417
G1 X118.89 Y104.748 E393.18523
G1 X85.55 Y71.408 E397.9441
G1 X86.059 Y71.4 E397.99548
G1 X86.957 Y71.4 E398.08611
G1 X119.901 Y104.345 E402.78853
G1 X120.604 Y104.016 E402.86687
G1 X120.756 Y103.938 E402.88411
G1 X120.853 Y103.882 E402.89542
G1 X88.371 Y71.4 E407.53181
G1 X89.785 Y71.4 E407.67453
G1 X121.75 Y103.365 E412.23713
G1 X122.414 Y102.926 E412.31747
G1 X122.573 Y102.812 E412.33722
G1 X122.594 Y102.795 E412.33994
G1 X91.199 Y71.4 E416.82119
G1 X92.614 Y71.4 E416.964
G1 X123.389 Y102.176 E421.35682
G1 X123.402 Y102.166 E421.35847
G1 X124.072 Y101.563 E421.44945
G1 X124.132 Y101.505 E421.45787
G1 X94.028 Y71.4 E425.75491
G1 X95.442 Y71.4 E425.89763
G1 X124.829 Y100.788 E430.09233
G1 X124.923 Y100.682 E430.10662
G1 X125.476 Y100.02 E430.19369
G1 X96.856 Y71.4 E434.27883
G1 X98.27 Y71.4 E434.42155
G1 X126.071 Y99.201 E438.38979
G1 X126.123 Y99.128 E438.39884
G1 X126.222 Y98.977 E438.41706
G1 X126.616 Y98.332 E438.49335
G1 X99.685 Y71.4 E442.33748
G1 X101.099 Y71.4 E442.48019
G1 X127.108 Y97.41 E446.19272
G1 X127.178 Y97.273 E446.20825
G1 X127.26 Y97.099 E446.22767
G1 X127.543 Y96.43 E446.30098
G1 X102.513 Y71.4 E449.8737
G1 X103.927 Y71.4 E450.01642
G1 X127.917 Y95.39 E453.44069
G1 X127.95 Y95.288 E453.45151
G1 X128.003 Y95.115 E453.46977
G1 X128.221 Y94.28 E453.55687
G1 X105.341 Y71.4 E456.8227
G1 X106.756 Y71.4 E456.96552
G1 X128.441 Y93.086 E460.06085
G1 X128.553 Y92.127 E460.1583
G1 X128.566 Y91.797 E460.19164
G1 X108.17 Y71.4 E463.10298
G1 X109.584 Y71.4 E463.24569
G1 X128.599 Y90.415 E465.95985
G1 X128.599 Y89.001 E466.10256
G1 X110.998 Y71.4 E468.61488
G1 X112.413 Y71.4 E468.7577
G1 X128.599 Y87.587 E471.06812
G1 X128.599 Y86.172 E471.21094
G1 X113.827 Y71.4 E473.31945
G1 X114.002 Y71.4 E473.33712
G1 X115.126 Y71.446 E473.45066
G1 X115.307 Y71.467 E473.46905
G1 X128.53 Y84.69 E475.35647
G1 X128.515 Y84.469 E475.37882
G1 X128.496 Y84.306 E475.39539
G1 X128.339 Y83.268 E475.50134
G1 X128.286 Y83.032 E475.52576
G1 X116.971 Y71.716 E477.1409
G1 X117.23 Y71.764 E477.16749
G1 X118.124 Y71.998 E477.26076
G1 X118.941 Y72.271 E477.3477
G1 X127.728 Y81.059 E478.60201
G1 X127.398 Y80.207 E478.69423
G1 X127.015 Y79.393 E478.78502
G1 X126.936 Y79.242 E478.80222
G1 X126.426 Y78.343 E478.90654
G1 X121.675 Y73.592 E479.58469
G1 X121.976 Y73.775 E479.62024
G1 X122.128 Y73.875 E479.63861
G1 X122.99 Y74.5 E479.74607
G1 X123.681 Y75.076 E479.83687
G1 X123.794 Y75.176 E479.8521
G1 X124.443 Y75.801 E479.94304
G1 X124.563 Y75.927 E479.9606
G1 X125.166 Y76.598 E480.05165
G1 X125.821 Y77.438 E480.15916
G1 X125.915 Y77.568 E480.17535
G1 X126.415 Y78.323 E480.26675
G0 F3600 X71.201 Y86
;TIME_ELAPSED:201.767680
;LAYER:-4
G0 X71.201 Y86 Z0.86
