;FLAVOR:Marlin
;TIME:1647
;Filament used: 1.2759m
;Layer height: 0.2
;Generated with Cura_SteamEngine 3.2.1
M190 S50
M104 S190
M109 S190
M82 ;absolute extrusion mode
G21 ;metric values
G90 ;absolute positioning
M82 ;set extruder to absolute mode
M107 ;start with the fan off
G28 X0 Y0 ;move X/Y to min endstops
G28 Z0 ;move Z to min endstops
G1 Z15.0 F9000 ;move the platform down 15mm
G92 E0 ;zero the extruded length
G1 F200 E3 ;extrude 3mm of feed stock
G92 E0 ;zero the extruded length again
G1 F9000
;Put printing message on LCD screen
M117 Printing...
;LAYER_COUNT:240
;LAYER:0
M107
G0 F3600 X76.547 Y88.649 Z0.3
;TYPE:SKIRT
G1 F1800 X77.146 Y88.134 E0.03987
G1 X77.794 Y87.683 E0.07971
G1 X78.485 Y87.299 E0.1196
G1 X79.21 Y86.987 E0.15943
G1 X79.963 Y86.75 E0.19927
G1 X80.737 Y86.591 E0.23915
G1 X81.522 Y86.51 E0.27897
G1 X81.924 Y86.5 E0.29927
G1 X114.715 Y86.5 E1.95407
G1 X115.504 Y86.54 E1.99394
G1 X116.284 Y86.659 E2.03376
G1 X117.049 Y86.857 E2.07364
G1 X117.789 Y87.131 E2.11346
G1 X118.498 Y87.479 E2.15332
G1 X119.169 Y87.897 E2.19321
G1 X119.793 Y88.38 E2.23303
G1 X120.326 Y88.882 E2.26998
G1 X123.687 Y92.363 E2.51417
G1 X124.206 Y92.958 E2.55402
G1 X124.663 Y93.603 E2.59391
G1 X125.051 Y94.29 E2.63373
G1 X125.368 Y95.013 E2.67357
G1 X125.611 Y95.765 E2.71345
G1 X125.776 Y96.537 E2.75329
G1 X125.862 Y97.322 E2.79314
G1 X125.869 Y98.112 E2.83301
G1 X125.796 Y98.898 E2.87285
G1 X125.643 Y99.673 E2.91271
G1 X125.413 Y100.428 E2.95254
G1 X125.108 Y101.157 E2.99242
G1 X124.73 Y101.85 E3.03226
G1 X124.285 Y102.502 E3.0721
G1 X123.776 Y103.106 E3.11196
G1 X123.494 Y103.392 E3.13223
G1 X115.294 Y111.311 E3.70751
G1 X114.699 Y111.83 E3.74735
G1 X114.055 Y112.286 E3.78718
G1 X113.368 Y112.675 E3.82702
G1 X112.644 Y112.992 E3.8669
G1 X111.893 Y113.235 E3.90674
G1 X111.121 Y113.4 E3.94658
G1 X110.336 Y113.486 E3.98643
G1 X109.876 Y113.5 E4.00965
G1 X81.924 Y113.5 E5.42026
G1 X81.135 Y113.46 E5.46013
G1 X80.355 Y113.341 E5.49995
G1 X79.59 Y113.143 E5.53982
G1 X78.85 Y112.869 E5.57965
G1 X78.141 Y112.521 E5.6195
G1 X77.47 Y112.103 E5.6594
G1 X76.846 Y111.62 E5.69922
G1 X76.273 Y111.077 E5.73906
G1 X75.758 Y110.478 E5.77892
G1 X75.307 Y109.83 E5.81877
G1 X74.923 Y109.139 E5.85866
G1 X74.611 Y108.414 E5.89849
G1 X74.374 Y107.661 E5.93833
G1 X74.215 Y106.887 E5.97821
G1 X74.134 Y106.102 E6.01803
G1 X74.124 Y105.7 E6.03832
G1 X74.124 Y94.3 E6.61363
G1 X74.164 Y93.511 E6.6535
G1 X74.283 Y92.731 E6.69332
G1 X74.481 Y91.966 E6.73319
G1 X74.755 Y91.226 E6.77302
G1 X75.103 Y90.517 E6.81287
G1 X75.521 Y89.846 E6.85277
G1 X76.004 Y89.222 E6.89259
G1 X76.547 Y88.649 E6.93243
G0 F3600 X76.94 Y88.83
G1 F1800 X77.535 Y88.342 E6.97126
G1 X78.177 Y87.919 E7.01006
G1 X78.86 Y87.564 E7.04891
G1 X79.575 Y87.283 E7.08768
G1 X80.317 Y87.077 E7.12654
G1 X81.075 Y86.949 E7.16533
G1 X81.924 Y86.9 E7.20825
G1 X114.715 Y86.9 E8.86306
G1 X115.483 Y86.94 E8.90187
G1 X116.243 Y87.059 E8.94069
G1 X116.986 Y87.257 E8.97949
G1 X117.705 Y87.531 E9.01832
G1 X118.391 Y87.878 E9.05712
G1 X119.038 Y88.294 E9.09594
G1 X119.638 Y88.775 E9.13474
G1 X120.039 Y89.16 E9.1628
G1 X123.4 Y92.641 E9.40699
G1 X123.904 Y93.221 E9.44576
G1 X124.346 Y93.851 E9.4846
G1 X124.72 Y94.523 E9.52341
G1 X125.022 Y95.23 E9.56221
G1 X125.25 Y95.965 E9.60105
G1 X125.399 Y96.72 E9.63988
G1 X125.47 Y97.485 E9.67865
G1 X125.461 Y98.255 E9.71751
G1 X125.372 Y99.019 E9.75633
G1 X125.204 Y99.769 E9.79512
G1 X124.959 Y100.498 E9.83393
G1 X124.64 Y101.198 E9.87275
G1 X124.25 Y101.861 E9.91157
G1 X123.793 Y102.48 E9.9504
G1 X123.217 Y103.104 E9.99325
G1 X115.017 Y111.023 E10.56854
G1 X114.436 Y111.528 E10.60738
G1 X113.807 Y111.97 E10.64618
G1 X113.135 Y112.344 E10.68499
G1 X112.427 Y112.646 E10.72384
G1 X111.693 Y112.874 E10.76262
G1 X110.938 Y113.023 E10.80146
G1 X109.876 Y113.1 E10.85519
G1 X81.924 Y113.1 E12.2658
G1 X81.156 Y113.06 E12.30461
G1 X80.396 Y112.941 E12.34343
G1 X79.653 Y112.743 E12.38224
G1 X78.934 Y112.469 E12.42107
G1 X78.248 Y112.122 E12.45986
G1 X77.601 Y111.706 E12.49868
G1 X77.001 Y111.225 E12.53749
G1 X76.454 Y110.684 E12.57631
G1 X75.966 Y110.089 E12.61515
G1 X75.543 Y109.447 E12.65395
G1 X75.188 Y108.764 E12.69279
G1 X74.907 Y108.049 E12.73156
G1 X74.701 Y107.307 E12.77042
G1 X74.573 Y106.549 E12.80922
G1 X74.524 Y105.7 E12.85213
G1 X74.524 Y94.3 E13.42744
G1 X74.564 Y93.532 E13.46625
G1 X74.683 Y92.772 E13.50507
G1 X74.881 Y92.029 E13.54387
G1 X75.155 Y91.31 E13.5827
G1 X75.502 Y90.624 E13.6215
G1 X75.918 Y89.977 E13.66032
G1 X76.399 Y89.377 E13.69912
G1 X76.94 Y88.83 E13.73795
G0 F3600 X77.332 Y89.016
G1 F1800 X77.922 Y88.557 E13.77567
G1 X78.558 Y88.162 E13.81345
G1 X79.232 Y87.838 E13.85119
G1 X79.937 Y87.588 E13.88894
G1 X80.665 Y87.414 E13.92672
G1 X81.407 Y87.319 E13.96447
G1 X81.924 Y87.3 E13.99058
G1 X114.715 Y87.3 E15.64538
G1 X115.462 Y87.34 E15.68314
G1 X116.2 Y87.459 E15.72086
G1 X116.922 Y87.657 E15.75864
G1 X117.618 Y87.93 E15.79637
G1 X118.281 Y88.277 E15.83413
G1 X118.904 Y88.692 E15.87191
G1 X119.478 Y89.171 E15.90964
G1 X119.751 Y89.438 E15.92891
G1 X123.112 Y92.919 E16.1731
G1 X123.602 Y93.484 E16.21084
G1 X124.029 Y94.098 E16.24858
G1 X124.388 Y94.754 E16.28632
G1 X124.675 Y95.445 E16.32408
G1 X124.886 Y96.163 E16.36185
G1 X125.02 Y96.899 E16.3996
G1 X125.075 Y97.645 E16.43735
G1 X125.049 Y98.393 E16.47512
G1 X124.944 Y99.133 E16.51284
G1 X124.761 Y99.858 E16.55057
G1 X124.501 Y100.56 E16.58835
G1 X124.168 Y101.23 E16.62611
G1 X123.765 Y101.86 E16.66385
G1 X123.297 Y102.444 E16.70162
G1 X122.939 Y102.816 E16.72767
G1 X114.739 Y110.735 E17.30296
G1 X114.174 Y111.225 E17.3407
G1 X113.559 Y111.653 E17.37851
G1 X112.903 Y112.012 E17.41625
G1 X112.212 Y112.299 E17.45401
G1 X111.495 Y112.51 E17.49173
G1 X110.759 Y112.644 E17.52948
G1 X109.876 Y112.7 E17.57413
G1 X81.924 Y112.7 E18.98474
G1 X81.177 Y112.66 E19.02249
G1 X80.439 Y112.541 E19.06021
G1 X79.717 Y112.343 E19.09799
G1 X79.021 Y112.07 E19.13572
G1 X78.358 Y111.723 E19.17349
G1 X77.735 Y111.308 E19.21126
G1 X77.161 Y110.829 E19.24899
G1 X76.64 Y110.292 E19.28675
G1 X76.181 Y109.702 E19.32447
G1 X75.786 Y109.066 E19.36226
G1 X75.462 Y108.392 E19.4
G1 X75.212 Y107.687 E19.43775
G1 X75.038 Y106.959 E19.47552
G1 X74.943 Y106.217 E19.51327
G1 X74.924 Y105.7 E19.53938
G1 X74.924 Y94.3 E20.11468
G1 X74.964 Y93.553 E20.15243
G1 X75.083 Y92.815 E20.19016
G1 X75.281 Y92.093 E20.22794
G1 X75.554 Y91.397 E20.26567
G1 X75.901 Y90.734 E20.30343
G1 X76.316 Y90.111 E20.34121
G1 X76.795 Y89.537 E20.37894
G1 X77.332 Y89.016 E20.4167
G0 F3600 X77.189 Y89.702
G1 F1800 X77.723 Y89.209 E20.45337
G1 X78.308 Y88.779 E20.49001
G1 X78.937 Y88.415 E20.52669
G1 X79.602 Y88.122 E20.56336
G1 X80.295 Y87.904 E20.60002
G1 X81.007 Y87.764 E20.63664
G1 X81.924 Y87.7 E20.68303
G1 X114.715 Y87.7 E22.33784
G1 X115.44 Y87.74 E22.37448
G1 X116.157 Y87.859 E22.41116
G1 X116.856 Y88.057 E22.44782
G1 X117.529 Y88.33 E22.48447
G1 X118.168 Y88.675 E22.52112
G1 X118.765 Y89.089 E22.55778
G1 X119.463 Y89.716 E22.60513
G1 X122.824 Y93.197 E22.84932
G1 X123.299 Y93.746 E22.88596
G1 X123.711 Y94.345 E22.92265
G1 X124.054 Y94.985 E22.95929
G1 X124.325 Y95.658 E22.99591
G1 X124.521 Y96.358 E23.03259
G1 X124.638 Y97.075 E23.06925
G1 X124.676 Y97.8 E23.10589
G1 X124.634 Y98.525 E23.14254
G1 X124.512 Y99.241 E23.17919
G1 X124.313 Y99.94 E23.21587
G1 X124.038 Y100.612 E23.25251
G1 X123.691 Y101.25 E23.28916
G1 X123.275 Y101.846 E23.32584
G1 X122.661 Y102.529 E23.37219
G1 X114.461 Y110.448 E23.94747
G1 X113.911 Y110.923 E23.98415
G1 X113.313 Y111.334 E24.02077
G1 X112.673 Y111.678 E24.05743
G1 X111.999 Y111.949 E24.09409
G1 X111.3 Y112.145 E24.13073
G1 X110.583 Y112.262 E24.16739
G1 X109.876 Y112.3 E24.20312
G1 X81.924 Y112.3 E25.61373
G1 X81.199 Y112.26 E25.65037
G1 X80.482 Y112.141 E25.68705
G1 X79.783 Y111.943 E25.72371
G1 X79.11 Y111.67 E25.76036
G1 X78.471 Y111.325 E25.79701
G1 X77.874 Y110.911 E25.83367
G1 X77.326 Y110.435 E25.87031
G1 X76.833 Y109.901 E25.90698
G1 X76.403 Y109.316 E25.94362
G1 X76.039 Y108.687 E25.9803
G1 X75.746 Y108.022 E26.01697
G1 X75.528 Y107.329 E26.05363
G1 X75.388 Y106.617 E26.09025
G1 X75.324 Y105.7 E26.13664
G1 X75.324 Y94.3 E26.71194
G1 X75.364 Y93.575 E26.74859
G1 X75.483 Y92.858 E26.78527
G1 X75.681 Y92.159 E26.82193
G1 X75.954 Y91.486 E26.85858
G1 X76.299 Y90.847 E26.89523
G1 X76.713 Y90.25 E26.93189
G1 X77.189 Y89.702 E26.96852
G0 F3600 X77.583 Y89.873
G1 F1800 X78.113 Y89.409 E27.00407
G1 X78.692 Y89.009 E27.03958
G1 X79.313 Y88.677 E27.07512
G1 X79.967 Y88.417 E27.11064
G1 X80.647 Y88.233 E27.14619
G1 X81.343 Y88.127 E27.18172
G1 X81.924 Y88.1 E27.21107
G1 X114.715 Y88.1 E28.86588
G1 X115.418 Y88.14 E28.90141
G1 X116.112 Y88.259 E28.93695
G1 X116.787 Y88.457 E28.97244
G1 X117.436 Y88.729 E29.00796
G1 X118.05 Y89.074 E29.0435
G1 X118.621 Y89.485 E29.079
G1 X119.175 Y89.993 E29.11694
G1 X122.536 Y93.474 E29.36112
G1 X122.996 Y94.008 E29.39669
G1 X123.392 Y94.59 E29.43222
G1 X123.719 Y95.213 E29.46773
G1 X123.974 Y95.869 E29.50324
G1 X124.153 Y96.55 E29.53878
G1 X124.253 Y97.247 E29.57431
G1 X124.274 Y97.951 E29.60986
G1 X124.214 Y98.652 E29.64536
G1 X124.076 Y99.343 E29.68092
G1 X123.86 Y100.013 E29.71645
G1 X123.57 Y100.654 E29.75195
G1 X123.209 Y101.258 E29.78746
G1 X122.782 Y101.818 E29.823
G1 X122.383 Y102.241 E29.85235
G1 X114.183 Y110.16 E30.42763
G1 X113.65 Y110.619 E30.46313
G1 X113.068 Y111.015 E30.49865
G1 X112.444 Y111.343 E30.53423
G1 X111.788 Y111.598 E30.56975
G1 X111.107 Y111.777 E30.60528
G1 X110.411 Y111.877 E30.64076
G1 X109.876 Y111.9 E30.66779
G1 X81.924 Y111.9 E32.07839
G1 X81.221 Y111.86 E32.11393
G1 X80.527 Y111.741 E32.14946
G1 X79.852 Y111.543 E32.18496
G1 X79.203 Y111.271 E32.22047
G1 X78.589 Y110.926 E32.25602
G1 X78.018 Y110.515 E32.29152
G1 X77.497 Y110.041 E32.32707
G1 X77.033 Y109.511 E32.36262
G1 X76.633 Y108.932 E32.39813
G1 X76.301 Y108.311 E32.43367
G1 X76.041 Y107.657 E32.46918
G1 X75.857 Y106.977 E32.50473
G1 X75.751 Y106.281 E32.54026
G1 X75.724 Y105.7 E32.56961
G1 X75.724 Y94.3 E33.14492
G1 X75.764 Y93.597 E33.18045
G1 X75.883 Y92.903 E33.21599
G1 X76.081 Y92.228 E33.25149
G1 X76.353 Y91.579 E33.287
G1 X76.698 Y90.965 E33.32254
G1 X77.109 Y90.394 E33.35804
G1 X77.583 Y89.873 E33.39359
G0 F3600 X77.977 Y90.051
G1 F1800 X78.502 Y89.617 E33.42797
G1 X79.074 Y89.248 E33.46232
G1 X79.686 Y88.949 E33.49669
G1 X80.328 Y88.724 E33.53102
G1 X80.993 Y88.575 E33.56541
G1 X81.924 Y88.5 E33.61255
G1 X114.715 Y88.5 E35.26736
G1 X115.395 Y88.54 E35.30173
G1 X116.065 Y88.659 E35.33607
G1 X116.717 Y88.856 E35.37044
G1 X117.341 Y89.128 E35.4048
G1 X117.929 Y89.472 E35.43918
G1 X118.473 Y89.882 E35.47355
G1 X118.888 Y90.271 E35.50226
G1 X122.249 Y93.752 E35.74645
G1 X122.692 Y94.269 E35.78081
G1 X123.072 Y94.834 E35.81517
G1 X123.383 Y95.44 E35.84954
G1 X123.62 Y96.078 E35.88389
G1 X123.782 Y96.739 E35.91823
G1 X123.864 Y97.415 E35.9526
G1 X123.867 Y98.096 E35.98697
G1 X123.791 Y98.773 E36.02134
G1 X123.635 Y99.436 E36.05572
G1 X123.403 Y100.076 E36.09007
G1 X123.097 Y100.684 E36.12442
G1 X122.722 Y101.252 E36.15877
G1 X122.105 Y101.953 E36.2059
G1 X113.905 Y109.872 E36.78118
G1 X113.388 Y110.316 E36.81557
G1 X112.823 Y110.695 E36.84991
G1 X112.218 Y111.006 E36.88423
G1 X111.58 Y111.244 E36.9186
G1 X110.918 Y111.406 E36.95299
G1 X110.242 Y111.488 E36.98736
G1 X109.876 Y111.5 E37.00584
G1 X81.924 Y111.5 E38.41644
G1 X81.244 Y111.46 E38.45082
G1 X80.574 Y111.341 E38.48516
G1 X79.922 Y111.144 E38.51953
G1 X79.298 Y110.872 E38.55388
G1 X78.71 Y110.528 E38.58826
G1 X78.166 Y110.118 E38.62264
G1 X77.675 Y109.647 E38.65698
G1 X77.241 Y109.122 E38.69135
G1 X76.872 Y108.55 E38.7257
G1 X76.573 Y107.938 E38.76008
G1 X76.348 Y107.296 E38.79441
G1 X76.199 Y106.631 E38.8288
G1 X76.124 Y105.7 E38.87593
G1 X76.124 Y94.3 E39.45124
G1 X76.164 Y93.62 E39.48561
G1 X76.283 Y92.95 E39.51996
G1 X76.48 Y92.298 E39.55433
G1 X76.752 Y91.674 E39.58868
G1 X77.096 Y91.086 E39.62306
G1 X77.506 Y90.542 E39.65744
G1 X77.977 Y90.051 E39.69177
G0 F3600 X78.369 Y90.235
G1 F1800 X78.889 Y89.834 E39.72491
G1 X79.453 Y89.498 E39.75804
G1 X80.055 Y89.234 E39.79121
G1 X80.684 Y89.044 E39.82437
G1 X81.331 Y88.933 E39.8575
G1 X81.924 Y88.9 E39.88747
G1 X114.715 Y88.9 E41.54228
G1 X115.371 Y88.94 E41.57545
G1 X116.017 Y89.059 E41.6086
G1 X116.644 Y89.256 E41.64176
G1 X117.242 Y89.528 E41.67492
G1 X117.803 Y89.87 E41.70807
G1 X118.318 Y90.278 E41.74123
G1 X118.6 Y90.549 E41.76097
G1 X121.961 Y94.03 E42.00516
G1 X122.387 Y94.53 E42.03831
G1 X122.75 Y95.077 E42.07144
G1 X123.044 Y95.665 E42.10461
G1 X123.264 Y96.284 E42.13777
G1 X123.408 Y96.925 E42.17092
G1 X123.472 Y97.579 E42.20408
G1 X123.457 Y98.236 E42.23725
G1 X123.362 Y98.886 E42.2704
G1 X123.189 Y99.519 E42.30351
G1 X122.94 Y100.127 E42.33667
G1 X122.619 Y100.701 E42.36986
G1 X122.231 Y101.231 E42.40301
G1 X121.827 Y101.665 E42.43293
G1 X113.627 Y109.584 E43.00821
G1 X113.128 Y110.011 E43.04136
G1 X112.58 Y110.374 E43.07453
G1 X111.993 Y110.668 E43.10766
G1 X111.374 Y110.888 E43.14081
G1 X110.733 Y111.032 E43.17397
G1 X109.876 Y111.1 E43.21735
G1 X81.924 Y111.1 E44.62796
G1 X81.268 Y111.06 E44.66112
G1 X80.622 Y110.941 E44.69427
G1 X79.995 Y110.744 E44.72744
G1 X79.397 Y110.472 E44.76059
G1 X78.836 Y110.13 E44.79375
G1 X78.321 Y109.722 E44.82691
G1 X77.859 Y109.255 E44.86006
G1 X77.458 Y108.735 E44.8932
G1 X77.122 Y108.171 E44.92633
G1 X76.858 Y107.569 E44.9595
G1 X76.668 Y106.94 E44.99266
G1 X76.557 Y106.293 E45.02579
G1 X76.524 Y105.7 E45.05576
G1 X76.524 Y94.3 E45.63106
G1 X76.564 Y93.644 E45.66423
G1 X76.683 Y92.998 E45.69738
G1 X76.88 Y92.371 E45.73055
G1 X77.152 Y91.773 E45.7637
G1 X77.494 Y91.212 E45.79686
G1 X77.902 Y90.697 E45.83001
G1 X78.369 Y90.235 E45.86317
G0 F3600 X78.297 Y90.859
G1 F1800 X78.76 Y90.429 E45.89505
G1 X79.274 Y90.06 E45.92698
G1 X79.83 Y89.76 E45.95887
G1 X80.419 Y89.532 E45.99074
G1 X81.033 Y89.38 E46.02266
G1 X81.924 Y89.3 E46.06781
G1 X114.715 Y89.3 E47.72261
G1 X115.346 Y89.34 E47.75452
G1 X115.967 Y89.459 E47.78643
G1 X116.567 Y89.656 E47.8183
G1 X117.139 Y89.927 E47.85024
G1 X117.671 Y90.267 E47.88211
G1 X118.312 Y90.827 E47.92506
G1 X121.673 Y94.308 E48.16925
G1 X122.082 Y94.79 E48.20115
G1 X122.428 Y95.319 E48.23305
G1 X122.704 Y95.888 E48.26496
G1 X122.906 Y96.487 E48.29687
G1 X123.03 Y97.107 E48.32877
G1 X123.076 Y97.737 E48.36065
G1 X123.041 Y98.368 E48.39254
G1 X122.928 Y98.99 E48.42445
G1 X122.736 Y99.593 E48.45638
G1 X122.47 Y100.166 E48.48826
G1 X122.134 Y100.702 E48.52019
G1 X121.549 Y101.378 E48.5653
G1 X113.349 Y109.297 E49.14059
G1 X112.868 Y109.706 E49.17245
G1 X112.338 Y110.052 E49.20439
G1 X111.77 Y110.328 E49.23626
G1 X111.171 Y110.529 E49.26815
G1 X110.551 Y110.654 E49.30006
G1 X109.876 Y110.7 E49.33421
G1 X81.924 Y110.7 E50.74481
G1 X81.293 Y110.66 E50.77672
G1 X80.672 Y110.541 E50.80863
G1 X80.072 Y110.344 E50.8405
G1 X79.5 Y110.073 E50.87244
G1 X78.968 Y109.733 E50.9043
G1 X78.483 Y109.327 E50.93622
G1 X78.053 Y108.864 E50.96811
G1 X77.684 Y108.35 E51.00004
G1 X77.384 Y107.794 E51.03192
G1 X77.156 Y107.205 E51.0638
G1 X77.004 Y106.591 E51.09572
G1 X76.924 Y105.7 E51.14086
G1 X76.924 Y94.3 E51.71617
G1 X76.964 Y93.669 E51.74808
G1 X77.083 Y93.048 E51.77999
G1 X77.28 Y92.448 E51.81186
G1 X77.551 Y91.876 E51.8438
G1 X77.891 Y91.344 E51.87566
G1 X78.297 Y90.859 E51.90758
G0 F3600 X78.691 Y91.028
G1 F1800 X79.149 Y90.631 E51.93817
G1 X79.656 Y90.298 E51.96878
G1 X80.202 Y90.034 E51.99938
G1 X80.778 Y89.845 E52.02998
G1 X81.374 Y89.733 E52.06058
G1 X81.924 Y89.7 E52.08839
G1 X114.715 Y89.7 E53.74319
G1 X115.32 Y89.74 E53.77379
G1 X115.914 Y89.859 E53.80436
