;FLAVOR:Marlin
;TIME:2162
;Filament used: 2.00922m
;Layer height: 0.2
;Generated with Cura_SteamEngine 3.2.1
M190 S50
M104 S190
M109 S190
M82 ;absolute extrusion mode
G21 ;metric values
G90 ;absolute positioning
M82 ;set extruder to absolute mode
M107 ;start with the fan off
G28 X0 Y0 ;move X/Y to min endstops
G28 Z0 ;move Z to min endstops
G1 Z15.0 F9000 ;move the platform down 15mm
G92 E0 ;zero the extruded length
G1 F200 E3 ;extrude 3mm of feed stock
G92 E0 ;zero the extruded length again
G1 F9000
;Put printing message on LCD screen
M117 Printing...
;LAYER_COUNT:240
;LAYER:-6
M107
G0 F3600 X72.522 Y83.133 Z0.36
G1 F1350 X73.35 Y82.487 E0.1272
G1 X73.509 Y82.374 E0.15082
G1 X74.247 Y81.884 E0.25811
G1 X75.167 Y81.362 E0.38623
G1 X75.317 Y81.284 E0.4067
G1 X76.132 Y80.901 E0.51577
G1 X77.134 Y80.512 E0.64595
G1 X77.284 Y80.46 E0.66518
G1 X78.134 Y80.205 E0.77266
G1 X78.307 Y80.158 E0.79438
G1 X79.202 Y79.958 E0.90545
G1 X80.237 Y79.801 E1.03224
G1 X80.406 Y79.783 E1.05282
G1 X81.479 Y79.708 E1.1831
G1 X81.984 Y79.7 E1.24427
G1 X109.879 Y79.701 E4.62282
G1 X111.003 Y79.746 E4.75907
G1 X112.095 Y79.873 E4.89222
G1 X113.107 Y80.065 E5.01697
G1 X114.001 Y80.299 E5.1289
G1 X115.006 Y80.635 E5.25725
G1 X115.172 Y80.698 E5.27875
G1 X115.975 Y81.039 E5.38441
G1 X116.164 Y81.127 E5.40966
G1 X116.958 Y81.536 E5.51784
G1 X117.075 Y81.601 E5.53405
G1 X117.854 Y82.076 E5.64456
G1 X118.005 Y82.176 E5.66649
G1 X118.867 Y82.8 E5.79538
G1 X119.645 Y83.451 E5.91824
G1 X120.018 Y83.798 E5.97995
G1 X128.278 Y91.779 E7.37107
G1 X128.895 Y92.419 E7.47874
G1 X129.017 Y92.555 E7.50087
G1 X129.689 Y93.375 E7.62928
G1 X130.294 Y94.231 E7.75623
G1 X130.778 Y95.025 E7.86886
G1 X131.266 Y95.967 E7.99735
G1 X131.331 Y96.105 E8.01582
G1 X131.681 Y96.931 E8.12448
G1 X131.745 Y97.097 E8.14603
G1 X132.039 Y97.961 E8.25656
G1 X132.31 Y98.981 E8.38439
G1 X132.509 Y100.033 E8.51406
G1 X132.628 Y101.081 E8.64181
G1 X132.64 Y101.244 E8.6616
G1 X132.673 Y102.15 E8.77141
G1 X132.64 Y103.194 E8.89792
G1 X132.627 Y103.367 E8.91893
G1 X132.502 Y104.446 E9.05049
G1 X132.343 Y105.307 E9.15653
G1 X132.299 Y105.501 E9.18063
G1 X132.083 Y106.326 E9.28392
G1 X132.021 Y106.53 E9.30974
G1 X131.74 Y107.352 E9.41495
G1 X131.676 Y107.52 E9.43673
G1 X131.327 Y108.342 E9.54489
G1 X130.84 Y109.301 E9.67516
G1 X130.304 Y110.19 E9.80089
G1 X130.19 Y110.361 E9.82578
G1 X129.694 Y111.058 E9.92939
G1 X129.571 Y111.214 E9.95345
G1 X128.888 Y112.028 E10.08215
G1 X128.579 Y112.36 E10.13708
G1 X125.284 Y115.773 E10.71166
G1 X124.505 Y116.528 E10.84305
G1 X124.389 Y116.633 E10.862
G1 X123.566 Y117.308 E10.99092
G1 X122.833 Y117.831 E11.09998
G1 X122.702 Y117.917 E11.11896
G1 X121.791 Y118.468 E11.24791
G1 X120.838 Y118.952 E11.37736
G1 X119.978 Y119.316 E11.49047
G1 X118.982 Y119.659 E11.61805
G1 X118.841 Y119.701 E11.63587
G1 X117.809 Y119.966 E11.76492
G1 X116.923 Y120.129 E11.87403
G1 X116.749 Y120.154 E11.89532
G1 X115.86 Y120.251 E12.00363
G1 X115.697 Y120.263 E12.02343
G1 X114.683 Y120.3 E12.14632
G1 X81.921 Y120.299 E16.11435
G1 X80.797 Y120.254 E16.25059
G1 X79.705 Y120.127 E16.38374
G1 X78.693 Y119.935 E16.5085
G1 X77.799 Y119.701 E16.62043
G1 X76.794 Y119.365 E16.74877
G1 X76.628 Y119.302 E16.77028
G1 X75.825 Y118.961 E16.87594
G1 X75.636 Y118.873 E16.90119
G1 X74.842 Y118.464 E17.00937
G1 X74.725 Y118.399 E17.02558
G1 X73.946 Y117.924 E17.13608
G1 X73.795 Y117.824 E17.15802
G1 X73.074 Y117.308 E17.2654
G1 X72.933 Y117.2 E17.28691
G1 X72.242 Y116.624 E17.39587
G1 X72.129 Y116.523 E17.41423
G1 X71.468 Y115.887 E17.52532
G1 X70.757 Y115.102 E17.6536
G1 X70.102 Y114.262 E17.78261
G1 X69.505 Y113.372 E17.91241
G1 X68.969 Y112.426 E18.0441
G1 X68.525 Y111.491 E18.16947
G1 X68.46 Y111.337 E18.18971
G1 X68.136 Y110.49 E18.29955
G1 X68.079 Y110.325 E18.32069
G1 X67.827 Y109.484 E18.42702
G1 X67.783 Y109.317 E18.44794
G1 X67.581 Y108.416 E18.55978
G1 X67.424 Y107.378 E18.68692
G1 X67.407 Y107.218 E18.70641
G1 X67.332 Y106.145 E18.83669
G1 X67.324 Y105.644 E18.89738
G1 X67.324 Y94.314 E20.26963
G1 X67.37 Y93.173 E20.40793
G1 X67.497 Y92.081 E20.54108
G1 X67.689 Y91.069 E20.66584
G1 X67.92 Y90.185 E20.7765
G1 X67.977 Y89.996 E20.80041
G1 X68.259 Y89.17 E20.90613
G1 X68.322 Y89.004 E20.92763
G1 X68.663 Y88.201 E21.03329
G1 X68.744 Y88.026 E21.05665
G1 X69.16 Y87.218 E21.16672
G1 X69.225 Y87.101 E21.18293
G1 X69.7 Y86.322 E21.29344
G1 X69.8 Y86.171 E21.31537
G1 X70.424 Y85.309 E21.44426
G1 X71 Y84.618 E21.55321
G1 X71.101 Y84.505 E21.57157
G1 X71.726 Y83.856 E21.6807
G1 X71.851 Y83.736 E21.70168
G1 X72.522 Y83.133 E21.81095
G0 F3600 X72 Y83.602
G1 F1350 X72 Y116.398 E25.78309
G0 F3600 X73.6 Y117.684
G1 F1350 X73.6 Y82.313 E30.06711
G0 F3600 X75.2 Y81.344
G1 F1350 X75.2 Y118.648 E34.58525
G0 F3600 X76.8 Y119.367
G1 F1350 X76.8 Y80.641 E39.27562
G0 F3600 X78.4 Y80.137
G1 F1350 X78.4 Y119.858 E44.08649
G0 F3600 X80 Y120.161
G1 F1350 X80 Y79.836 E48.97053
G0 F3600 X81.6 Y79.706
G1 F1350 X81.6 Y120.286 E53.88544
G0 F3600 X83.2 Y120.299
G1 F1350 X83.2 Y79.701 E58.80254
G0 F3600 X84.8 Y79.701
G1 F1350 X84.8 Y120.299 E63.71964
G0 F3600 X86.4 Y120.299
G1 F1350 X86.4 Y79.701 E68.63673
G0 F3600 X88 Y79.701
G1 F1350 X88 Y120.299 E73.55383
G0 F3600 X89.6 Y120.299
G1 F1350 X89.6 Y79.701 E78.47093
G0 F3600 X91.2 Y79.701
G1 F1350 X91.2 Y120.299 E83.38802
G0 F3600 X92.8 Y120.299
G1 F1350 X92.8 Y79.701 E88.30512
G0 F3600 X94.4 Y79.701
G1 F1350 X94.4 Y120.299 E93.22222
G0 F3600 X96 Y120.299
G1 F1350 X96 Y79.701 E98.13931
G0 F3600 X97.6 Y79.701
G1 F1350 X97.6 Y120.299 E103.05641
G0 F3600 X99.2 Y120.299
G1 F1350 X99.2 Y79.701 E107.97351
G0 F3600 X100.8 Y79.701
G1 F1350 X100.8 Y120.299 E112.8906
G0 F3600 X102.4 Y120.299
G1 F1350 X102.4 Y79.701 E117.8077
G0 F3600 X104 Y79.701
G1 F1350 X104 Y120.299 E122.7248
G0 F3600 X105.6 Y120.299
G1 F1350 X105.6 Y79.701 E127.64189
G0 F3600 X107.2 Y79.701
G1 F1350 X107.2 Y120.299 E132.55899
G0 F3600 X108.8 Y120.299
G1 F1350 X108.8 Y79.701 E137.47609
G0 F3600 X110.4 Y79.722
G1 F1350 X110.4 Y120.299 E142.39064
G0 F3600 X112 Y120.299
G1 F1350 X112 Y79.862 E147.28824
G0 F3600 X113.6 Y80.195
G1 F1350 X113.6 Y120.299 E152.1455
G0 F3600 X115.2 Y120.282
G1 F1350 X115.2 Y80.71 E156.93833
G0 F3600 X116.8 Y81.455
G1 F1350 X116.8 Y120.147 E161.62458
G0 F3600 X118.4 Y119.815
G1 F1350 X118.4 Y82.462 E166.14865
G0 F3600 X120 Y83.782
G1 F1350 X120 Y119.307 E170.45133
G0 F3600 X121.6 Y118.566
G1 F1350 X121.6 Y85.327 E174.47712
G0 F3600 X123.2 Y86.873
G1 F1350 X123.2 Y117.57 E178.19504
G0 F3600 X124.8 Y116.243
G1 F1350 X124.8 Y88.419 E181.565
G0 F3600 X126.4 Y89.965
G1 F1350 X126.4 Y114.618 E184.55089
G0 F3600 X128 Y112.96
G1 F1350 X128 Y91.511 E187.14872
G0 F3600 X129.6 Y93.267
G1 F1350 X129.6 Y111.178 E189.31804
G0 F3600 X131.2 Y108.593
G1 F1350 X131.2 Y95.84 E190.86264
G0 F3600 X70.4 Y85.342
G1 F1350 X70.4 Y114.644 E194.4116
G0 F3600 X68.8 Y112.07
G1 F1350 X68.8 Y87.917 E197.33694
G0 F3600 X69.471 Y113.311
;TIME_ELAPSED:77.315430
;LAYER:-5
M140 S50
G0 X69.471 Y113.311 Z0.66
;TYPE:SUPPORT
G1 F1350 X74.297 Y118.137 E198.02579
G1 X74.724 Y118.398 E198.0763
G1 X74.841 Y118.463 E198.08981
G1 X75.635 Y118.872 E198.17995
G1 X75.825 Y118.96 E198.20109
G1 X76.627 Y119.301 E198.28905
G1 X76.793 Y119.364 E198.30697
G1 X77.01 Y119.436 E198.33004
G1 X68.181 Y110.607 E199.59027
G1 X68.136 Y110.488 E199.60311
G1 X68.078 Y110.324 E199.62067
G1 X67.827 Y109.482 E199.70935
G1 X67.783 Y109.315 E199.72678
G1 X67.631 Y108.644 E199.79622
G1 X78.975 Y119.987 E201.41536
G1 X79.705 Y120.126 E201.49036
G1 X80.636 Y120.234 E201.58496
G1 X67.39 Y106.988 E203.47566
G1 X67.332 Y106.143 E203.56115
G1 X67.323 Y105.643 E203.61162
G1 X67.323 Y105.507 E203.62535
G1 X82.114 Y120.298 E205.73658
G1 X83.529 Y120.298 E205.87939
G1 X67.323 Y104.093 E208.19253
G1 X67.323 Y102.678 E208.33534
G1 X84.943 Y120.298 E210.85038
G1 X86.357 Y120.298 E210.99309
G1 X67.323 Y101.264 E213.70996
G1 X67.323 Y99.85 E213.85267
G1 X87.771 Y120.298 E216.77137
G1 X89.185 Y120.298 E216.91408
G1 X67.323 Y98.436 E220.03461
G1 X67.323 Y97.022 E220.17732
G1 X90.6 Y120.298 E223.49975
G1 X92.014 Y120.298 E223.64247
G1 X67.323 Y95.607 E227.1668
G1 X67.324 Y94.313 E227.2974
G1 X67.328 Y94.198 E227.30902
G1 X93.428 Y120.298 E231.03446
G1 X94.842 Y120.298 E231.17718
G1 X67.405 Y92.861 E235.09347
G1 X67.496 Y92.08 E235.17283
G1 X67.582 Y91.624 E235.21966
G1 X96.257 Y120.298 E239.31259
G1 X97.671 Y120.298 E239.4553
G1 X67.844 Y90.472 E243.71266
G1 X67.92 Y90.184 E243.74272
G1 X67.977 Y89.994 E243.76274
G1 X68.181 Y89.394 E243.82671
G1 X99.085 Y120.298 E248.23786
G1 X100.499 Y120.298 E248.38058
G1 X68.584 Y88.383 E252.93604
G1 X68.662 Y88.2 E252.95612
G1 X68.744 Y88.025 E252.97563
G1 X69.048 Y87.433 E253.0428
G1 X101.913 Y120.298 E257.73386
G1 X103.328 Y120.298 E257.87668
G1 X69.567 Y86.537 E262.69564
G1 X69.7 Y86.321 E262.72124
G1 X69.799 Y86.17 E262.73946
G1 X70.141 Y85.697 E262.79838
G1 X104.742 Y120.298 E267.73723
G1 X106.156 Y120.298 E267.87995
G1 X70.76 Y84.903 E272.93221
G1 X70.999 Y84.617 E272.96983
G1 X71.101 Y84.504 E272.98519
G1 X71.431 Y84.159 E273.03338
G1 X107.57 Y120.298 E278.19177
G1 X108.984 Y120.298 E278.33448
G1 X72.151 Y83.465 E283.59193
G1 X72.521 Y83.132 E283.64217
G1 X72.921 Y82.821 E283.69331
G1 X110.399 Y120.298 E289.04275
G1 X111.813 Y120.298 E289.18547
G1 X73.737 Y82.222 E294.62034
G1 X74.246 Y81.883 E294.68207
G1 X74.608 Y81.679 E294.724
G1 X113.227 Y120.298 E300.23638
G1 X114.641 Y120.298 E300.3791
G1 X75.528 Y81.185 E305.96199
G1 X76.132 Y80.9 E306.02939
G1 X76.511 Y80.753 E306.07042
G1 X115.992 Y120.235 E311.70591
G1 X116.748 Y120.152 E311.78267
G1 X116.923 Y120.128 E311.8005
G1 X117.241 Y120.069 E311.83314
G1 X77.551 Y80.379 E317.49839
G1 X78.133 Y80.204 E317.55973
G1 X78.307 Y80.156 E317.57795
G1 X78.663 Y80.077 E317.61476
G1 X118.399 Y119.813 E323.28657
G1 X118.84 Y119.7 E323.33252
G1 X118.982 Y119.658 E323.34746
G1 X119.484 Y119.484 E323.40109
G1 X79.858 Y79.858 E329.0572
G1 X80.236 Y79.8 E329.0958
G1 X80.405 Y79.782 E329.11295
G1 X81.145 Y79.731 E329.18782
G1 X120.505 Y119.091 E334.80597
G1 X120.837 Y118.952 E334.84229
G1 X121.462 Y118.634 E334.91307
G1 X82.528 Y79.7 E340.47041
G1 X83.942 Y79.7 E340.61312
G1 X122.363 Y118.12 E346.09717
G1 X122.701 Y117.917 E346.13696
G1 X122.832 Y117.831 E346.15278
G1 X123.214 Y117.557 E346.20023
G1 X85.356 Y79.7 E351.60391
G1 X86.771 Y79.7 E351.74673
G1 X124.012 Y116.941 E357.06241
G1 X124.388 Y116.633 E357.11147
G1 X124.504 Y116.528 E357.12726
G1 X124.762 Y116.277 E357.16359
G1 X88.185 Y79.7 E362.3845
G1 X89.599 Y79.7 E362.52721
G1 X125.475 Y115.575 E367.64799
G1 X126.169 Y114.856 E367.74885
G1 X91.013 Y79.7 E372.76693
G1 X92.428 Y79.7 E372.90974
G1 X126.864 Y114.136 E377.82505
G1 X127.558 Y113.416 E377.92598
G1 X93.842 Y79.7 E382.73852
G1 X95.256 Y79.7 E382.88123
G1 X128.253 Y112.697 E387.59114
G1 X128.578 Y112.359 E387.63847
G1 X128.887 Y112.028 E387.68417
G1 X128.938 Y111.968 E387.69212
G1 X96.671 Y79.7 E392.2979
G1 X98.085 Y79.7 E392.44061
G1 X129.582 Y111.198 E396.93648
G1 X129.693 Y111.058 E396.95452
G1 X130.177 Y110.378 E397.03876
G1 X99.499 Y79.7 E401.41766
G1 X100.914 Y79.7 E401.56047
G1 X130.717 Y109.503 E405.81448
G1 X130.839 Y109.301 E405.8383
G1 X131.206 Y108.579 E405.92004
G1 X102.328 Y79.7 E410.04208
G1 X103.742 Y79.7 E410.1848
G1 X131.642 Y107.6 E414.16718
G1 X131.675 Y107.52 E414.17591
G1 X131.738 Y107.352 E414.19402
G1 X132.011 Y106.556 E414.27895
G1 X105.156 Y79.7 E418.11224
G1 X106.57 Y79.7 E418.25495
G1 X132.311 Y105.441 E421.92916
G1 X132.342 Y105.306 E421.94314
G1 X132.501 Y104.446 E422.03141
G1 X132.525 Y104.24 E422.05234
G1 X107.985 Y79.7 E425.55512
G1 X109.399 Y79.7 E425.69783
G1 X132.647 Y102.949 E429.01627
G1 X132.672 Y102.149 E429.09705
G1 X132.65 Y101.537 E429.15886
G1 X110.852 Y79.739 E432.27025
G1 X111.002 Y79.745 E432.2854
G1 X112.094 Y79.872 E432.39636
G1 X112.471 Y79.944 E432.4351
G1 X132.496 Y99.969 E435.29342
G1 X132.309 Y98.98 E435.395
G1 X132.087 Y98.146 E435.48211
G1 X114.361 Y80.42 E438.01228
G1 X115.005 Y80.635 E438.0808
G1 X115.171 Y80.698 E438.09872
G1 X115.973 Y81.038 E438.18664
G1 X116.162 Y81.127 E438.20773
G1 X116.821 Y81.465 E438.28248
G1 X116.957 Y81.535 E438.29792
G1 X117.074 Y81.601 E438.31147
G1 X117.852 Y82.076 E438.40348
G1 X118.004 Y82.176 E438.42184
G1 X118.866 Y82.8 E438.52925
G1 X119.644 Y83.45 E438.63157
G1 X120.017 Y83.797 E438.68299
G1 X128.276 Y91.778 E439.84219
G1 X128.894 Y92.418 E439.93198
G1 X129.016 Y92.555 E439.9505
G1 X129.688 Y93.375 E440.0575
G1 X130.293 Y94.231 E440.1633
G1 X130.777 Y95.024 E440.25707
G0 F3600 X131.205 Y95.849
G1 F1350 X116.821 Y81.465 E442.3102
G0 F3600 X74.297 Y118.137
G1 F1350 X73.945 Y117.923 E442.35178
G1 X73.795 Y117.823 E442.36998
G1 X73.073 Y117.307 E442.45955
G1 X72.933 Y117.199 E442.47739
G1 X72.242 Y116.623 E442.56819
G1 X72.129 Y116.522 E442.58348
G1 X71.467 Y115.885 E442.67621
G1 X70.757 Y115.101 E442.78297
G1 X70.102 Y114.261 E442.89048
G1 X69.505 Y113.371 E442.99864
G0 F3600 X111.025 Y79.546
;TIME_ELAPSED:187.546555
;LAYER:-4
G0 X111.025 Y79.546 Z0.86
G1 F1800 X109.886 Y79.501 E443.03699
G1 X81.982 Y79.5 E443.97578
G1 X81.469 Y79.508 E443.99304
G1 X80.385 Y79.583 E444.0296
G1 X80.237 Y79.6 E444.03461
G1 X111.486 Y79.6 E445.08594
G0 F3600 X80.237 Y79.6
G1 F1800 X80.21 Y79.603 E445.08685
G1 X79.31 Y79.736 E445.11746
G1 X79.157 Y79.764 E445.12269
G1 X78.248 Y79.967 E445.15403
G1 X78.124 Y80 E445.15834
G1 X113.651 Y80 E446.3536
G1 X114.049 Y80.104 E446.36744
G1 X114.935 Y80.4 E446.39887
G1 X76.867 Y80.4 E447.67961
G1 X76.204 Y80.653 E447.70348
G1 X76.062 Y80.713 E447.70867
G1 X75.877 Y80.8 E447.71555
G1 X115.925 Y80.8 E449.0629
G1 X116.066 Y80.86 E449.06806
G1 X116.241 Y80.942 E449.07456
G1 X116.736 Y81.2 E449.09334
G1 X75.047 Y81.2 E450.49591
G1 X74.343 Y81.6 E450.52315
G1 X117.457 Y81.6 E451.97365
G1 X117.951 Y81.901 E451.99312
G1 X118.1 Y82 E451.99913
G1 X73.713 Y82 E453.49247
G1 X73.388 Y82.215 E453.50558
G1 X73.234 Y82.324 E453.51193
G1 X73.136 Y82.4 E453.5161
G1 X118.657 Y82.4 E455.04759
G1 X118.982 Y82.635 E455.06108
G1 X119.179 Y82.8 E455.06973
G1 X72.618 Y82.8 E456.6362
G1 X72.516 Y82.878 E456.64052
G1 X72.389 Y82.984 E456.64609
G1 X72.149 Y83.2 E456.65695
G1 X119.657 Y83.2 E458.25529
G1 X119.785 Y83.308 E458.26092
G1 X120.1 Y83.6 E458.27537
G1 X71.704 Y83.6 E459.90359
G1 X71.588 Y83.711 E459.90899
G1 X71.31 Y84 E459.92248
G1 X120.517 Y84 E461.57798
G1 X120.931 Y84.4 E461.59734
G1 X70.928 Y84.4 E463.27962
G1 X70.592 Y84.8 E463.2972
G1 X121.345 Y84.8 E465.00471
G1 X121.759 Y85.2 E465.02407
G1 X70.256 Y85.2 E466.75682
G1 X69.967 Y85.6 E466.77342
G1 X122.174 Y85.6 E468.52985
G1 X122.588 Y86 E468.54921
G1 X69.678 Y86 E470.32929
G1 X69.642 Y86.049 E470.33134
G1 X69.525 Y86.225 E470.33845
G1 X69.42 Y86.4 E470.34532
G1 X123.002 Y86.4 E472.148
G1 X123.416 Y86.8 E472.16737
G1 X69.179 Y86.8 E473.9921
G1 X68.982 Y87.127 E474.00494
G1 X68.945 Y87.2 E474.00769
G1 X123.83 Y87.2 E475.85422
G1 X124.245 Y87.6 E475.87361
G1 X68.738 Y87.6 E477.74106
G1 X68.565 Y87.935 E477.75375
G1 X68.535 Y88 E477.75615
G1 X124.659 Y88 E479.64436
G1 X125.073 Y88.4 E479.66373
G1 X68.361 Y88.4 E481.57172
G1 X68.192 Y88.8 E481.58633
G1 X125.487 Y88.8 E483.51394
G1 X125.901 Y89.2 E483.53331
G1 X68.038 Y89.2 E485.48002
G1 X67.901 Y89.6 E485.49425
G1 X126.316 Y89.6 E487.45953
G1 X126.73 Y90 E487.4789
G1 X67.767 Y90 E489.46263
G1 X67.728 Y90.127 E489.4671
G1 X67.657 Y90.4 E489.47659
G1 X127.144 Y90.4 E491.47794
G1 X127.558 Y90.8 E491.49731
G1 X67.553 Y90.8 E493.51609
G1 X67.495 Y91.019 E493.52371
G1 X67.461 Y91.2 E493.5299
G1 X127.972 Y91.2 E495.56571
