;FLAVOR:Marlin
;TIME:1711
;Filament used: 2.13373m
;Layer height: 0.2
;Generated with Cura_SteamEngine 3.2.1
M190 S50
M104 S190
M109 S190
M82 ;absolute extrusion mode
G21 ;metric values
G90 ;absolute positioning
M82 ;set extruder to absolute mode
M107 ;start with the fan off
G28 X0 Y0 ;move X/Y to min endstops
G28 Z0 ;move Z to min endstops
G1 Z15.0 F9000 ;move the platform down 15mm
G92 E0 ;zero the extruded length
G1 F200 E3 ;extrude 3mm of feed stock
G92 E0 ;zero the extruded length again
G1 F9000
;Put printing message on LCD screen
M117 Printing...
;LAYER_COUNT:57
;LAYER:-6
M107
G0 F3600 X75.076 Y66.318 Z0.36
G1 F1350 X75.177 Y66.205 E0.01836
G1 X75.802 Y65.556 E0.12748
G1 X75.927 Y65.436 E0.14847
G1 X76.598 Y64.833 E0.25773
G1 X77.426 Y64.187 E0.38493
G1 X77.585 Y64.074 E0.40856
G1 X78.323 Y63.584 E0.51585
G1 X79.243 Y63.062 E0.64396
G1 X79.393 Y62.984 E0.66444
G1 X80.208 Y62.601 E0.77351
G1 X81.21 Y62.212 E0.90369
G1 X81.36 Y62.16 E0.92292
G1 X82.21 Y61.905 E1.0304
G1 X82.383 Y61.858 E1.05211
G1 X83.278 Y61.658 E1.16319
G1 X84.313 Y61.501 E1.28997
G1 X84.482 Y61.483 E1.31056
G1 X85.555 Y61.408 E1.44083
G1 X86.06 Y61.4 E1.50201
G1 X91.003 Y61.401 E2.10069
G1 X92.127 Y61.446 E2.23693
G1 X93.219 Y61.573 E2.37008
G1 X94.231 Y61.765 E2.49484
G1 X95.125 Y61.999 E2.60676
G1 X96.13 Y62.335 E2.73511
G1 X96.296 Y62.398 E2.75661
G1 X97.099 Y62.739 E2.86228
G1 X97.288 Y62.827 E2.88753
G1 X98.082 Y63.236 E2.9957
G1 X98.199 Y63.301 E3.01191
G1 X98.978 Y63.776 E3.12242
G1 X99.129 Y63.876 E3.14436
G1 X99.991 Y64.5 E3.27324
G1 X100.682 Y65.076 E3.3822
G1 X100.795 Y65.177 E3.40055
G1 X101.444 Y65.802 E3.50968
G1 X101.564 Y65.927 E3.53067
G1 X102.167 Y66.598 E3.63993
G1 X102.822 Y67.438 E3.76894
G1 X102.916 Y67.569 E3.78847
G1 X103.416 Y68.323 E3.89805
G1 X103.938 Y69.243 E4.02616
G1 X104.016 Y69.393 E4.04664
G1 X104.399 Y70.208 E4.15571
G1 X104.788 Y71.21 E4.28589
G1 X104.84 Y71.36 E4.30512
G1 X105.095 Y72.21 E4.4126
G1 X105.142 Y72.383 E4.43431
G1 X105.34 Y73.269 E4.54427
G1 X105.498 Y74.307 E4.67144
G1 X105.516 Y74.469 E4.69118
G1 X105.592 Y75.555 E4.82303
G1 X105.6 Y76.056 E4.88372
G1 X105.6 Y99.013 E7.6642
G1 X105.642 Y99.681 E7.74526
G1 X105.771 Y100.352 E7.82802
G1 X105.984 Y101.001 E7.91075
G1 X106.276 Y101.618 E7.99342
G1 X106.644 Y102.193 E8.07611
G1 X107.082 Y102.717 E8.15882
G1 X107.582 Y103.181 E8.24144
G1 X108.138 Y103.58 E8.32433
G1 X108.738 Y103.904 E8.40692
G1 X109.374 Y104.15 E8.48951
G1 X110.043 Y104.316 E8.57299
G1 X110.982 Y104.4 E8.68718
G1 X114.003 Y104.401 E9.05307
G1 X115.004 Y104.437 E9.17439
G1 X116.044 Y104.548 E9.30106
G1 X116.219 Y104.573 E9.32247
G1 X117.231 Y104.765 E9.44723
G1 X118.125 Y104.999 E9.55916
G1 X119.13 Y105.335 E9.6875
G1 X119.296 Y105.398 E9.709
G1 X120.099 Y105.739 E9.81467
G1 X120.288 Y105.827 E9.83992
G1 X121.082 Y106.236 E9.94809
G1 X121.199 Y106.301 E9.9643
G1 X121.978 Y106.776 E10.07481
G1 X122.129 Y106.876 E10.09675
G1 X122.991 Y107.5 E10.22563
G1 X123.682 Y108.076 E10.33459
G1 X123.795 Y108.177 E10.35294
G1 X124.444 Y108.802 E10.46207
G1 X124.564 Y108.927 E10.48306
G1 X125.167 Y109.598 E10.59232
G1 X125.813 Y110.426 E10.71952
G1 X125.926 Y110.585 E10.74314
G1 X126.416 Y111.323 E10.85044
G1 X126.938 Y112.243 E10.97855
G1 X127.016 Y112.393 E10.99903
G1 X127.399 Y113.208 E11.10809
G1 X127.788 Y114.21 E11.23828
G1 X127.84 Y114.36 E11.25751
G1 X128.095 Y115.21 E11.36499
G1 X128.142 Y115.383 E11.3867
G1 X128.34 Y116.269 E11.49666
G1 X128.498 Y117.307 E11.62382
G1 X128.516 Y117.469 E11.64357
G1 X128.592 Y118.555 E11.77542
G1 X128.6 Y119.056 E11.83611
G1 X128.6 Y123.986 E12.43321
G1 X128.554 Y125.127 E12.57152
G1 X128.427 Y126.219 E12.70467
G1 X128.235 Y127.231 E12.82943
G1 X128.004 Y128.116 E12.94021
G1 X127.952 Y128.288 E12.96197
G1 X127.676 Y129.1 E13.06584
G1 X127.596 Y129.309 E13.09295
G1 X127.18 Y130.274 E13.22022
G1 X126.764 Y131.082 E13.33029
G1 X126.699 Y131.199 E13.3465
G1 X126.224 Y131.978 E13.45701
G1 X126.124 Y132.129 E13.47895
G1 X125.5 Y132.991 E13.60783
G1 X124.924 Y133.682 E13.71679
G1 X124.823 Y133.795 E13.73514
G1 X124.198 Y134.444 E13.84427
G1 X124.073 Y134.564 E13.86526
G1 X123.403 Y135.166 E13.97435
G1 X122.574 Y135.813 E14.10172
G1 X122.415 Y135.926 E14.12534
G1 X121.677 Y136.416 E14.23263
G1 X120.757 Y136.938 E14.36075
G1 X120.606 Y137.016 E14.38133
G1 X119.792 Y137.399 E14.49029
G1 X118.79 Y137.788 E14.62047
G1 X118.64 Y137.84 E14.6397
G1 X117.79 Y138.095 E14.74718
G1 X117.617 Y138.142 E14.7689
G1 X116.722 Y138.342 E14.87997
G1 X115.687 Y138.499 E15.00676
G1 X115.519 Y138.517 E15.02722
G1 X114.445 Y138.592 E15.15762
G1 X113.94 Y138.6 E15.21879
G1 X85.997 Y138.599 E18.60315
G1 X84.873 Y138.554 E18.7394
G1 X83.781 Y138.427 E18.87255
G1 X82.769 Y138.235 E18.99731
G1 X81.875 Y138.001 E19.10923
G1 X80.87 Y137.665 E19.23758
G1 X80.704 Y137.602 E19.25908
G1 X79.901 Y137.261 E19.36475
G1 X79.712 Y137.173 E19.39
G1 X78.918 Y136.764 E19.49817
G1 X78.801 Y136.699 E19.51438
G1 X78.022 Y136.224 E19.62489
G1 X77.871 Y136.124 E19.64682
G1 X77.009 Y135.5 E19.77571
G1 X76.318 Y134.924 E19.88467
G1 X76.205 Y134.823 E19.90302
G1 X75.556 Y134.198 E20.01215
G1 X75.436 Y134.073 E20.03314
G1 X74.833 Y133.402 E20.1424
G1 X74.178 Y132.562 E20.27141
G1 X73.581 Y131.672 E20.40121
G1 X73.056 Y130.746 E20.53014
G1 X72.984 Y130.607 E20.5491
G1 X72.587 Y129.761 E20.66228
G1 X72.212 Y128.79 E20.78835
G1 X72.155 Y128.625 E20.8095
G1 X71.905 Y127.79 E20.91506
G1 X71.858 Y127.617 E20.93678
G1 X71.657 Y126.716 E21.04858
G1 X71.5 Y125.678 E21.17573
G1 X71.483 Y125.518 E21.19522
G1 X71.408 Y124.445 E21.3255
G1 X71.4 Y123.944 E21.38618
G1 X71.4 Y76.014 E27.19131
G1 X71.446 Y74.873 E27.32961
G1 X71.573 Y73.781 E27.46277
G1 X71.765 Y72.769 E27.58752
G1 X71.996 Y71.884 E27.6983
G1 X72.048 Y71.712 E27.72007
G1 X72.334 Y70.87 E27.82777
G1 X72.398 Y70.704 E27.84932
G1 X72.739 Y69.901 E27.95498
G1 X72.82 Y69.726 E27.97833
G1 X73.236 Y68.918 E28.08841
G1 X73.301 Y68.801 E28.10462
G1 X73.776 Y68.022 E28.21512
G1 X73.876 Y67.871 E28.23706
G1 X74.5 Y67.009 E28.36594
G1 X75.076 Y66.318 E28.4749
G0 F3600 X75.2 Y66.181
G1 F1350 X75.2 Y133.81 E36.6659
G0 F3600 X76.8 Y135.325
G1 F1350 X76.8 Y64.675 E45.2228
G0 F3600 X78.4 Y63.54
G1 F1350 X78.4 Y136.454 E54.0539
G0 F3600 X80 Y137.303
G1 F1350 X80 Y62.698 E63.08982
G0 F3600 X81.6 Y62.088
G1 F1350 X81.6 Y137.909 E72.27301
G0 F3600 X83.2 Y138.316
G1 F1350 X83.2 Y61.675 E81.55551
G0 F3600 X84.8 Y61.46
G1 F1350 X84.8 Y138.545 E90.8918
G0 F3600 X86.4 Y138.599
G1 F1350 X86.4 Y61.401 E100.24177
G0 F3600 X88 Y61.401
G1 F1350 X88 Y138.599 E109.59173
G0 F3600 X89.6 Y138.599
G1 F1350 X89.6 Y61.401 E118.9417
G0 F3600 X91.2 Y61.409
G1 F1350 X91.2 Y138.599 E128.2907
G0 F3600 X92.8 Y138.599
G1 F1350 X92.8 Y61.525 E137.62565
G0 F3600 X94.4 Y61.81
G1 F1350 X94.4 Y138.599 E146.92609
G0 F3600 X96 Y138.599
G1 F1350 X96 Y62.292 E156.16814
G0 F3600 X97.6 Y62.988
G1 F1350 X97.6 Y138.599 E165.3259
G0 F3600 X99.2 Y138.599
G1 F1350 X99.2 Y63.928 E174.3698
G0 F3600 X100.8 Y65.182
G1 F1350 X100.8 Y138.599 E183.26183
G0 F3600 X102.4 Y138.599
G1 F1350 X102.4 Y66.897 E191.94614
G0 F3600 X104 Y69.363
G1 F1350 X104 Y138.599 E200.33178
G0 F3600 X105.6 Y138.599
G1 F1350 X105.6 Y76.056 E207.90678
G0 F3600 X106.101 Y99.626
G0 X106.206 Y100.175
G0 X107.2 Y102.827
G1 F1350 X107.2 Y138.599 E212.23937
G0 F3600 X108.8 Y138.599
G1 F1350 X108.8 Y103.928 E216.43861
G0 F3600 X110.4 Y104.348
G1 F1350 X110.4 Y138.599 E220.58697
G0 F3600 X112 Y138.599
G1 F1350 X112 Y104.401 E224.72892
G0 F3600 X113.6 Y104.401
G1 F1350 X113.6 Y138.599 E228.87087
G0 F3600 X115.2 Y138.54
G1 F1350 X115.2 Y104.458 E232.99877
G0 F3600 X116.8 Y104.684
G1 F1350 X116.8 Y138.325 E237.07326
G0 F3600 X118.4 Y137.912
G1 F1350 X118.4 Y105.091 E241.04843
G0 F3600 X120 Y105.697
G1 F1350 X120 Y137.302 E244.87633
G0 F3600 X121.6 Y136.46
G1 F1350 X121.6 Y106.546 E248.49941
G0 F3600 X123.2 Y107.675
G1 F1350 X123.2 Y135.325 E251.84829
G0 F3600 X124.8 Y133.819
G1 F1350 X124.8 Y109.19 E254.83127
G0 F3600 X126.4 Y111.299
G1 F1350 X126.4 Y131.69 E257.30097
G0 F3600 X128 Y128.13
G1 F1350 X128 Y114.894 E258.90407
G0 F3600 X73.6 Y131.7
G1 F1350 X73.6 Y68.31 E266.58166
G0 F3600 X72 Y71.87
G1 F1350 X72 Y128.107 E273.3929
G0 F3600 X102.821 Y67.438
;TIME_ELAPSED:105.989867
;LAYER:-5
M140 S50
G0 X102.821 Y67.438 Z0.66
;TYPE:SUPPORT
G1 F1350 X102.166 Y66.597 E273.50049
G1 X101.563 Y65.927 E273.59146
G1 X101.442 Y65.801 E273.6091
G1 X100.793 Y65.176 E273.70004
G1 X100.681 Y65.075 E273.71526
G1 X99.989 Y64.5 E273.80607
G1 X99.502 Y64.147 E273.86677
G1 X102.894 Y67.539 E274.35094
G0 F3600 X99.502 Y64.147
G1 F1350 X99.127 Y63.875 E274.3977
G1 X98.977 Y63.776 E274.41584
G1 X98.198 Y63.3 E274.50798
G1 X98.081 Y63.236 E274.52144
G1 X97.287 Y62.827 E274.61158
G1 X97.098 Y62.738 E274.63267
G1 X96.371 Y62.43 E274.71236
G1 X104.556 Y70.615 E275.88066
G1 X104.787 Y71.209 E275.94499
G1 X104.839 Y71.36 E275.96111
G1 X105.094 Y72.209 E276.05058
G1 X105.141 Y72.382 E276.06868
G1 X105.208 Y72.681 E276.0996
G1 X94.314 Y61.787 E277.65458
G1 X94.229 Y61.765 E277.66345
G1 X93.218 Y61.572 E277.76733
G1 X92.616 Y61.503 E277.82849
G1 X105.507 Y74.394 E279.66852
G1 X105.515 Y74.468 E279.67603
G1 X105.591 Y75.555 E279.78601
G1 X105.597 Y75.898 E279.82063
G1 X91.103 Y61.405 E281.8894
G1 X91.001 Y61.4 E281.8997
G1 X89.685 Y61.4 E282.03253
G1 X105.599 Y77.315 E284.30412
G1 X105.599 Y78.729 E284.44684
G1 X88.27 Y61.4 E286.92034
G1 X86.856 Y61.4 E287.06305
G1 X105.599 Y80.143 E289.73838
G1 X105.599 Y81.557 E289.8811
G1 X85.456 Y61.415 E292.75618
G1 X84.48 Y61.482 E292.85492
G1 X84.312 Y61.501 E292.87199
G1 X84.153 Y61.526 E292.88823
G1 X105.599 Y82.971 E295.94931
G1 X105.599 Y84.386 E296.09213
G1 X82.945 Y61.732 E299.3257
G1 X82.382 Y61.857 E299.38391
G1 X82.208 Y61.905 E299.40213
G1 X81.82 Y62.021 E299.443
G1 X105.599 Y85.8 E302.83715
G1 X105.599 Y87.214 E302.97987
G1 X80.768 Y62.383 E306.52418
G1 X80.207 Y62.6 E306.58489
G1 X79.775 Y62.804 E306.63311
G1 X105.599 Y88.628 E310.31916
G1 X105.599 Y90.042 E310.46188
G1 X78.844 Y63.288 E314.28075
G1 X78.322 Y63.583 E314.34126
G1 X77.964 Y63.822 E314.38471
G1 X105.599 Y91.457 E318.32926
G1 X105.599 Y92.871 E318.47197
G1 X77.138 Y64.411 E322.53435
G1 X76.597 Y64.832 E322.60354
G1 X76.36 Y65.046 E322.63577
G1 X105.599 Y94.285 E326.80927
G1 X105.599 Y95.699 E326.95199
G1 X75.631 Y65.731 E331.22954
G1 X75.176 Y66.204 E331.29578
G1 X75.074 Y66.318 E331.31122
G1 X74.951 Y66.465 E331.33057
G1 X105.599 Y97.114 E335.70526
G1 X105.599 Y98.528 E335.84797
G1 X74.322 Y67.251 E340.31237
G1 X73.875 Y67.87 E340.38943
G1 X73.775 Y68.022 E340.4078
G1 X73.738 Y68.081 E340.41483
G1 X105.713 Y100.057 E344.97893
G1 X105.769 Y100.351 E345.00913
G1 X105.983 Y101.001 E345.0782
G1 X106.275 Y101.618 E345.1471
G1 X106.643 Y102.193 E345.216
G1 X107.081 Y102.717 E345.28493
G1 X107.58 Y103.181 E345.35371
G1 X108.137 Y103.58 E345.42286
G1 X108.737 Y103.903 E345.49164
G1 X109.373 Y104.15 E345.5605
G0 F3600 X125.165 Y109.598
G1 F1350 X124.563 Y108.926 E345.65156
G1 X124.443 Y108.801 E345.66905
G1 X123.793 Y108.176 E345.76006
G1 X123.681 Y108.075 E345.77528
G1 X123.386 Y107.83 E345.81399
G1 X125.206 Y109.65 E346.07377
G0 F3600 X123.386 Y107.83
G1 F1350 X122.989 Y107.5 E346.12587
G1 X122.127 Y106.875 E346.23334
G1 X121.977 Y106.775 E346.25153
G1 X121.198 Y106.3 E346.34362
G1 X121.081 Y106.236 E346.35708
G1 X120.287 Y105.827 E346.44723
G1 X120.098 Y105.738 E346.46831
G1 X119.72 Y105.578 E346.50974
G1 X127.429 Y113.286 E347.61003
G1 X127.787 Y114.209 E347.70996
G1 X127.839 Y114.36 E347.72607
G1 X128.094 Y115.209 E347.81555
G1 X128.141 Y115.383 E347.83374
G1 X128.15 Y115.422 E347.83778
G1 X117.586 Y104.858 E349.34566
G1 X117.229 Y104.764 E349.38292
G1 X116.217 Y104.573 E349.48686
G1 X116.043 Y104.548 E349.5046
G1 X115.841 Y104.527 E349.5251
G1 X128.475 Y117.161 E351.32845
G1 X128.497 Y117.306 E351.34325
G1 X128.515 Y117.468 E351.3597
G1 X128.591 Y118.554 E351.46958
G1 X128.594 Y118.694 E351.48371
G1 X114.312 Y104.412 E353.52229
G1 X114.001 Y104.4 E353.5537
G1 X112.886 Y104.4 E353.66624
G1 X128.599 Y120.114 E355.90914
G1 X128.599 Y121.528 E356.05186
G1 X111.471 Y104.4 E358.49667
G1 X110.981 Y104.4 E358.54612
G1 X110.042 Y104.315 E358.64128
G1 X109.95 Y104.293 E358.65083
G1 X128.599 Y122.942 E361.31274
G1 X128.599 Y123.986 E361.41811
G1 X128.585 Y124.342 E361.45407
G1 X73.209 Y68.966 E369.3583
G1 X72.819 Y69.726 E369.44452
G1 X72.735 Y69.906 E369.46456
G1 X128.491 Y125.662 E377.42303
G1 X128.426 Y126.218 E377.47953
G1 X128.299 Y126.885 E377.54806
G1 X72.32 Y70.906 E385.53836
G1 X72.047 Y71.711 E385.62415
G1 X71.995 Y71.883 E385.64229
G1 X71.972 Y71.972 E385.65157
G1 X128.027 Y128.027 E393.65271
G1 X128.004 Y128.115 E393.6619
G1 X127.952 Y128.287 E393.68003
G1 X127.679 Y129.093 E393.76592
G1 X71.699 Y73.113 E401.75636
G1 X71.572 Y73.78 E401.82489
G1 X71.507 Y74.336 E401.88139
G1 X127.26 Y130.088 E409.83936
G1 X127.18 Y130.273 E409.8597
G1 X126.789 Y131.032 E409.94588
G1 X71.414 Y75.656 E417.85003
G1 X71.4 Y76.013 E417.88609
G1 X71.4 Y77.056 E417.99136
G1 X126.26 Y131.917 E425.82201
G1 X126.224 Y131.977 E425.82907
G1 X126.123 Y132.128 E425.84741
G1 X125.676 Y132.747 E425.92447
G1 X71.4 Y78.471 E433.67169
G1 X71.4 Y79.885 E433.8144
G1 X125.048 Y133.533 E441.47198
G1 X124.924 Y133.681 E441.49147
G1 X124.822 Y133.794 E441.50683
G1 X124.368 Y134.267 E441.57301
G1 X71.4 Y81.299 E449.13352
G1 X71.4 Y82.713 E449.27624
G1 X123.638 Y134.952 E456.73263
G1 X123.402 Y135.164 E456.76465
G1 X122.86 Y135.588 E456.8341
G1 X71.4 Y84.128 E464.17937
G1 X71.4 Y85.542 E464.32208
G1 X122.034 Y136.176 E471.54945
G1 X121.676 Y136.415 E471.5929
G1 X121.154 Y136.711 E471.65346
G1 X71.4 Y86.956 E478.75529
G1 X71.4 Y88.37 E478.89801
G1 X120.224 Y137.194 E485.86702
G1 X119.791 Y137.398 E485.91533
G1 X119.23 Y137.615 E485.97604
G1 X71.4 Y89.784 E492.80324
G1 X71.4 Y91.199 E492.94606
G1 X118.178 Y137.977 E499.62303
G1 X117.79 Y138.094 E499.66393
G1 X117.616 Y138.141 E499.68213
G1 X117.053 Y138.266 E499.74033
G1 X71.4 Y92.613 E506.25673
G1 X71.4 Y94.027 E506.39944
G1 X115.846 Y138.473 E512.74355
G1 X115.686 Y138.498 E512.75989
G1 X115.518 Y138.516 E512.77695
G1 X114.542 Y138.584 E512.87569
G1 X71.4 Y95.441 E519.03374
G1 X71.4 Y96.855 E519.17646
G1 X113.142 Y138.598 E525.13468
G1 X111.728 Y138.598 E525.27739
G1 X71.4 Y98.27 E531.03371
G1 X71.4 Y99.684 E531.17642
G1 X110.314 Y138.598 E536.73091
G1 X108.9 Y138.598 E536.87362
G1 X71.4 Y101.098 E542.22628
G1 X71.4 Y102.512 E542.36899
G1 X107.485 Y138.598 E547.51974
G1 X106.071 Y138.598 E547.66246
G1 X71.4 Y103.927 E552.61131
G1 X71.4 Y105.341 E552.75403
G1 X104.657 Y138.598 E557.50104
G1 X103.243 Y138.598 E557.64376
G1 X71.4 Y106.755 E562.18895
G1 X71.4 Y108.169 E562.33166
G1 X101.829 Y138.598 E566.67502
G1 X100.414 Y138.598 E566.81784
G1 X71.4 Y109.583 E570.95929
G1 X71.4 Y110.998 E571.10211
G1 X99 Y138.598 E575.04166
G1 X97.586 Y138.598 E575.18438
G1 X71.4 Y112.412 E578.9221
G1 X71.4 Y113.826 E579.06482
G1 X96.172 Y138.598 E582.60071
G1 X94.757 Y138.598 E582.74352
G1 X71.4 Y115.24 E586.07751
G1 X71.4 Y116.654 E586.22023
G1 X93.343 Y138.598 E589.35239
G1 X91.929 Y138.598 E589.4951
G1 X71.4 Y118.069 E592.42536
G1 X71.4 Y119.483 E592.56808
G1 X90.515 Y138.598 E595.2965
G1 X89.101 Y138.598 E595.43922
G1 X71.4 Y120.897 E597.96581
G1 X71.4 Y122.311 E598.10853
G1 X87.686 Y138.598 E600.43322
G1 X86.272 Y138.598 E600.57594
G1 X71.4 Y123.726 E602.69873
G1 X71.4 Y123.943 E602.72063
G1 X71.407 Y124.443 E602.7711
G1 X71.46 Y125.2 E602.84769
G1 X84.804 Y138.544 E604.75238
G1 X83.78 Y138.426 E604.85642
G1 X83.152 Y138.306 E604.92095
