;FLAVOR:Marlin
;TIME:4580
;Filament used: 5.40041m
;Layer height: 0.2
;Generated with Cura_SteamEngine 3.2.1
M190 S50
M104 S190
M109 S190
M82 ;absolute extrusion mode
G21 ;metric values
G90 ;absolute positioning
M82 ;set extruder to absolute mode
M107 ;start with the fan off
G28 X0 Y0 ;move X/Y to min endstops
G28 Z0 ;move Z to min endstops
G1 Z15.0 F9000 ;move the platform down 15mm
G92 E0 ;zero the extruded length
G1 F200 E3 ;extrude 3mm of feed stock
G92 E0 ;zero the extruded length again
G1 F9000
;Put printing message on LCD screen
M117 Printing...
;LAYER_COUNT:57
;LAYER:-6
M107
G0 F3600 X47.471 Y54.409 Z0.36
G1 F1350 X48.299 Y53.763 E0.1272
G1 X48.458 Y53.65 E0.15082
G1 X49.196 Y53.16 E0.25811
G1 X50.116 Y52.638 E0.38623
G1 X50.266 Y52.56 E0.4067
G1 X51.081 Y52.177 E0.51577
G1 X52.083 Y51.788 E0.64595
G1 X52.233 Y51.736 E0.66518
G1 X53.083 Y51.481 E0.77266
G1 X53.256 Y51.434 E0.79438
G1 X54.151 Y51.234 E0.90545
G1 X55.186 Y51.077 E1.03224
G1 X55.355 Y51.059 E1.05282
G1 X56.428 Y50.984 E1.1831
G1 X56.933 Y50.976 E1.24427
G1 X84.876 Y50.977 E4.62864
G1 X86 Y51.022 E4.76488
G1 X87.092 Y51.149 E4.89803
G1 X88.104 Y51.341 E5.02279
G1 X88.998 Y51.575 E5.13471
G1 X90.003 Y51.911 E5.26306
G1 X90.169 Y51.974 E5.28456
G1 X90.972 Y52.315 E5.39023
G1 X91.161 Y52.403 E5.41548
G1 X91.955 Y52.812 E5.52365
G1 X92.072 Y52.877 E5.53986
G1 X92.851 Y53.352 E5.65037
G1 X93.002 Y53.452 E5.67231
G1 X93.864 Y54.076 E5.80119
G1 X94.555 Y54.652 E5.91015
G1 X94.668 Y54.753 E5.9285
G1 X95.317 Y55.378 E6.03763
G1 X95.437 Y55.503 E6.05862
G1 X96.04 Y56.174 E6.16788
G1 X96.695 Y57.014 E6.29689
G1 X96.789 Y57.145 E6.31642
G1 X97.289 Y57.899 E6.426
G1 X97.811 Y58.819 E6.55411
G1 X97.889 Y58.969 E6.57459
G1 X98.272 Y59.784 E6.68366
G1 X98.661 Y60.786 E6.81384
G1 X98.713 Y60.936 E6.83307
G1 X98.968 Y61.786 E6.94055
G1 X99.015 Y61.959 E6.96226
G1 X99.213 Y62.845 E7.07222
G1 X99.373 Y63.907 E7.2023
G1 X99.429 Y64.328 E7.25374
G1 X99.447 Y64.328 E7.25592
G1 X99.488 Y64.566 E7.28517
G1 X99.688 Y65.219 E7.36788
G1 X99.97 Y65.841 E7.4506
G1 X100.328 Y66.423 E7.53336
G1 X100.756 Y66.955 E7.61605
G1 X101.248 Y67.428 E7.69871
G1 X101.795 Y67.836 E7.78136
G1 X102.391 Y68.171 E7.86417
G1 X103.024 Y68.43 E7.94701
G1 X103.189 Y68.472 E7.96763
G1 X103.183 Y68.492 E7.97016
G1 X103.83 Y68.636 E8.05044
G1 X104.724 Y68.87 E8.16236
G1 X105.729 Y69.206 E8.29071
G1 X105.895 Y69.269 E8.31221
G1 X106.698 Y69.61 E8.41788
G1 X106.887 Y69.698 E8.44313
G1 X107.681 Y70.107 E8.5513
G1 X107.798 Y70.172 E8.56751
G1 X108.577 Y70.647 E8.67802
G1 X108.728 Y70.747 E8.69996
G1 X109.59 Y71.371 E8.82884
G1 X110.281 Y71.947 E8.9378
G1 X110.394 Y72.048 E8.95615
G1 X111.043 Y72.673 E9.06528
G1 X111.163 Y72.798 E9.08627
G1 X111.766 Y73.469 E9.19553
G1 X112.412 Y74.297 E9.32273
G1 X112.525 Y74.456 E9.34635
G1 X113.015 Y75.194 E9.45365
G1 X113.537 Y76.114 E9.58176
G1 X113.615 Y76.264 E9.60224
G1 X113.998 Y77.079 E9.7113
G1 X114.387 Y78.081 E9.84149
G1 X114.439 Y78.231 E9.86071
G1 X114.694 Y79.081 E9.9682
G1 X114.741 Y79.254 E9.98991
G1 X114.939 Y80.14 E10.09987
G1 X115.036 Y80.772 E10.17731
G1 X115.175 Y81.427 E10.25841
G1 X115.401 Y82.072 E10.34118
G1 X115.704 Y82.683 E10.42378
G1 X116.083 Y83.251 E10.50649
G1 X116.532 Y83.766 E10.58924
G1 X117.04 Y84.221 E10.67184
G1 X117.603 Y84.608 E10.75458
G1 X118.21 Y84.921 E10.8373
G1 X118.853 Y85.155 E10.92017
G1 X119.071 Y85.203 E10.94721
G1 X119.067 Y85.221 E10.94944
G1 X120.587 Y85.506 E11.13675
G1 X121.481 Y85.74 E11.24868
G1 X122.486 Y86.076 E11.37702
G1 X122.652 Y86.139 E11.39853
G1 X123.455 Y86.48 E11.50419
G1 X123.644 Y86.568 E11.52944
G1 X124.438 Y86.977 E11.63761
G1 X124.555 Y87.042 E11.65382
G1 X125.334 Y87.517 E11.76433
G1 X125.485 Y87.617 E11.78627
G1 X126.347 Y88.241 E11.91515
G1 X127.038 Y88.817 E12.02411
G1 X127.151 Y88.918 E12.04246
G1 X127.8 Y89.543 E12.15159
G1 X127.92 Y89.668 E12.17258
G1 X128.523 Y90.339 E12.28184
G1 X129.169 Y91.167 E12.40904
G1 X129.282 Y91.326 E12.43266
G1 X129.772 Y92.064 E12.53996
G1 X130.294 Y92.984 E12.66807
G1 X130.372 Y93.134 E12.68855
G1 X130.755 Y93.949 E12.79761
G1 X131.144 Y94.951 E12.9278
G1 X131.196 Y95.101 E12.94703
G1 X131.498 Y96.122 E13.07598
G1 X131.606 Y96.609 E13.1364
G1 X131.794 Y97.252 E13.21754
G1 X132.066 Y97.878 E13.3002
G1 X132.415 Y98.465 E13.38292
G1 X132.835 Y99.003 E13.46558
G1 X133.32 Y99.484 E13.54831
G1 X133.862 Y99.9 E13.63107
G1 X134.452 Y100.243 E13.71372
G1 X135.08 Y100.511 E13.79642
G1 X135.739 Y100.696 E13.87932
G1 X136.05 Y100.741 E13.91738
G1 X136.05 Y100.752 E13.91871
G1 X137.574 Y100.928 E14.10452
G1 X138.586 Y101.12 E14.22928
G1 X139.48 Y101.354 E14.3412
G1 X140.485 Y101.69 E14.46955
G1 X140.651 Y101.753 E14.49105
G1 X141.454 Y102.094 E14.59672
G1 X141.643 Y102.182 E14.62197
G1 X142.437 Y102.591 E14.73014
G1 X142.554 Y102.656 E14.74635
G1 X143.333 Y103.131 E14.85686
G1 X143.484 Y103.231 E14.8788
G1 X144.346 Y103.855 E15.00768
G1 X145.037 Y104.431 E15.11664
G1 X145.15 Y104.532 E15.13499
G1 X145.799 Y105.157 E15.24412
G1 X145.919 Y105.282 E15.26511
G1 X146.522 Y105.953 E15.37437
G1 X147.168 Y106.781 E15.50157
G1 X147.281 Y106.94 E15.52519
G1 X147.771 Y107.678 E15.63249
G1 X148.285 Y108.583 E15.75854
G1 X148.371 Y108.748 E15.78108
G1 X148.754 Y109.563 E15.89014
G1 X149.143 Y110.565 E16.02033
G1 X149.195 Y110.715 E16.03956
G1 X149.45 Y111.565 E16.14704
G1 X149.497 Y111.738 E16.16875
G1 X149.695 Y112.624 E16.27871
G1 X149.851 Y113.647 E16.40404
G1 X149.872 Y113.838 E16.42731
G1 X149.947 Y114.91 E16.55747
G1 X149.955 Y115.411 E16.61816
G1 X149.955 Y120.341 E17.21526
G1 X149.909 Y121.482 E17.35357
G1 X149.782 Y122.574 E17.48672
G1 X149.59 Y123.586 E17.61148
G1 X149.359 Y124.471 E17.72225
G1 X149.307 Y124.643 E17.74402
G1 X149.021 Y125.485 E17.85172
G1 X148.957 Y125.651 E17.87327
G1 X148.616 Y126.454 E17.97893
G1 X148.535 Y126.629 E18.00229
G1 X148.054 Y127.554 E18.12856
G1 X147.579 Y128.333 E18.23907
G1 X147.479 Y128.484 E18.261
G1 X146.855 Y129.346 E18.38989
G1 X146.279 Y130.037 E18.49885
G1 X146.178 Y130.15 E18.5172
G1 X145.552 Y130.8 E18.6265
G1 X145.435 Y130.913 E18.6462
G1 X144.758 Y131.521 E18.75641
G1 X143.929 Y132.168 E18.88378
G1 X143.77 Y132.281 E18.9074
G1 X143.032 Y132.771 E19.01469
G1 X142.112 Y133.293 E19.14281
G1 X141.961 Y133.371 E19.16339
G1 X141.147 Y133.754 E19.27235
G1 X140.145 Y134.143 E19.40253
G1 X139.995 Y134.195 E19.42176
G1 X139.145 Y134.45 E19.52924
G1 X138.972 Y134.497 E19.55096
G1 X138.077 Y134.697 E19.66203
G1 X137.042 Y134.854 E19.78882
G1 X136.874 Y134.872 E19.80928
G1 X135.8 Y134.947 E19.93968
G1 X135.295 Y134.955 E20.00085
G1 X132.342 Y134.955 E20.35851
G1 X131.674 Y134.997 E20.43957
G1 X131.003 Y135.126 E20.52233
G1 X130.354 Y135.339 E20.60506
G1 X129.737 Y135.631 E20.68774
G1 X129.162 Y135.999 E20.77042
G1 X128.638 Y136.437 E20.85314
G1 X128.174 Y136.937 E20.93575
G1 X127.775 Y137.493 E21.01864
G1 X127.451 Y138.093 E21.10123
G1 X127.205 Y138.729 E21.18382
G1 X127.039 Y139.398 E21.2673
G1 X126.955 Y140.337 E21.38149
G1 X126.955 Y143.341 E21.74532
G1 X126.909 Y144.478 E21.88314
G1 X126.782 Y145.574 E22.01678
G1 X126.59 Y146.586 E22.14153
G1 X126.359 Y147.471 E22.25231
G1 X126.307 Y147.643 E22.27408
G1 X126.031 Y148.455 E22.37795
G1 X125.951 Y148.664 E22.40505
G1 X125.535 Y149.629 E22.53233
G1 X125.119 Y150.437 E22.6424
G1 X125.054 Y150.554 E22.65861
G1 X124.579 Y151.333 E22.76912
G1 X124.479 Y151.484 E22.79105
G1 X123.855 Y152.346 E22.91994
G1 X123.279 Y153.037 E23.02889
G1 X123.178 Y153.15 E23.04725
G1 X122.553 Y153.799 E23.15638
G1 X122.428 Y153.919 E23.17736
G1 X121.758 Y154.521 E23.28646
G1 X120.929 Y155.168 E23.41382
G1 X120.77 Y155.281 E23.43745
G1 X120.032 Y155.771 E23.54474
G1 X119.112 Y156.293 E23.67285
G1 X118.961 Y156.371 E23.69344
G1 X118.147 Y156.754 E23.8024
G1 X117.145 Y157.143 E23.93258
G1 X116.995 Y157.195 E23.95181
G1 X116.145 Y157.45 E24.05929
G1 X115.972 Y157.497 E24.081
G1 X115.077 Y157.697 E24.19208
G1 X114.042 Y157.854 E24.31887
G1 X113.874 Y157.872 E24.33933
G1 X112.8 Y157.947 E24.46973
G1 X112.295 Y157.955 E24.5309
G1 X107.352 Y157.954 E25.12958
G1 X106.228 Y157.909 E25.26582
G1 X105.136 Y157.782 E25.39897
G1 X104.124 Y157.59 E25.52373
G1 X103.23 Y157.356 E25.63565
G1 X102.225 Y157.02 E25.764
G1 X102.059 Y156.957 E25.7855
G1 X101.256 Y156.616 E25.89117
G1 X101.067 Y156.528 E25.91642
G1 X100.273 Y156.119 E26.02459
G1 X100.156 Y156.054 E26.0408
G1 X99.377 Y155.579 E26.15131
G1 X99.226 Y155.479 E26.17325
G1 X98.364 Y154.855 E26.30213
G1 X97.673 Y154.279 E26.41109
G1 X97.56 Y154.178 E26.42944
G1 X96.911 Y153.553 E26.53857
G1 X96.791 Y153.428 E26.55956
G1 X96.188 Y152.757 E26.66882
G1 X95.533 Y151.917 E26.79783
G1 X94.936 Y151.027 E26.92763
G1 X94.411 Y150.101 E27.05656
G1 X94.339 Y149.962 E27.07552
G1 X93.942 Y149.116 E27.1887
G1 X93.567 Y148.145 E27.31477
G1 X93.51 Y147.98 E27.33592
G1 X93.256 Y147.133 E27.44302
G1 X93.209 Y146.958 E27.46496
G1 X93.105 Y146.487 E27.52338
G1 X92.917 Y145.844 E27.60452
G1 X92.645 Y145.218 E27.68719
G1 X92.296 Y144.631 E27.7699
G1 X91.876 Y144.093 E27.85257
G1 X91.391 Y143.612 E27.9353
G1 X90.849 Y143.196 E28.01805
G1 X90.259 Y142.853 E28.10071
G1 X89.631 Y142.585 E28.1834
G1 X88.972 Y142.4 E28.26631
G1 X88.661 Y142.355 E28.30437
G1 X88.661 Y142.344 E28.3057
G1 X87.137 Y142.168 E28.49151
G1 X86.125 Y141.976 E28.61626
G1 X85.231 Y141.742 E28.72819
G1 X84.226 Y141.406 E28.85653
G1 X84.06 Y141.343 E28.87804
G1 X83.257 Y141.002 E28.9837
G1 X83.068 Y140.914 E29.00895
G1 X82.274 Y140.505 E29.11713
G1 X82.157 Y140.44 E29.13334
G1 X81.378 Y139.965 E29.24384
G1 X81.227 Y139.865 E29.26578
G1 X80.365 Y139.241 E29.39467
G1 X79.674 Y138.665 E29.50362
G1 X79.561 Y138.564 E29.52198
G1 X78.912 Y137.939 E29.63111
G1 X78.792 Y137.814 E29.65209
G1 X78.189 Y137.143 E29.76136
G1 X77.534 Y136.303 E29.89037
G1 X76.937 Y135.413 E30.02017
G1 X76.412 Y134.487 E30.14909
G1 X76.34 Y134.348 E30.16805
G1 X75.957 Y133.532 E30.27723
G1 X75.892 Y133.378 E30.29747
G1 X75.568 Y132.531 E30.40731
G1 X75.511 Y132.366 E30.42845
G1 X75.261 Y131.531 E30.53402
G1 X75.214 Y131.358 E30.55573
G1 X75.013 Y130.457 E30.66754
G1 X74.919 Y129.84 E30.74313
G1 X74.78 Y129.185 E30.82423
G1 X74.554 Y128.54 E30.90701
G1 X74.251 Y127.929 E30.98961
G1 X73.872 Y127.361 E31.07231
G1 X73.423 Y126.846 E31.15507
G1 X72.915 Y126.391 E31.23766
G1 X72.352 Y126.004 E31.32041
G1 X71.745 Y125.691 E31.40313
G1 X71.102 Y125.457 E31.486
G1 X70.884 Y125.409 E31.51304
G1 X70.888 Y125.391 E31.51527
G1 X69.368 Y125.106 E31.70257
G1 X68.474 Y124.872 E31.8145
G1 X67.469 Y124.536 E31.94285
G1 X67.298 Y124.471 E31.965
G1 X66.5 Y124.132 E32.07001
G1 X66.311 Y124.044 E32.09526
G1 X65.517 Y123.635 E32.20344
G1 X65.4 Y123.57 E32.21965
G1 X64.621 Y123.095 E32.33016
G1 X64.47 Y122.995 E32.35209
G1 X63.608 Y122.371 E32.48098
G1 X62.917 Y121.795 E32.58993
G1 X62.804 Y121.694 E32.60829
G1 X62.155 Y121.069 E32.71742
G1 X62.035 Y120.944 E32.7384
G1 X61.431 Y120.271 E32.84793
G1 X60.777 Y119.433 E32.97668
G1 X60.18 Y118.543 E33.10647
G1 X59.655 Y117.617 E33.2354
G1 X59.583 Y117.478 E33.25436
G1 X59.2 Y116.662 E33.36354
G1 X59.135 Y116.508 E33.38378
G1 X58.811 Y115.661 E33.49362
G1 X58.754 Y115.496 E33.51476
G1 X58.504 Y114.661 E33.62033
G1 X58.457 Y114.488 E33.64204
G1 X58.256 Y113.587 E33.75385
G1 X58.233 Y113.462 E33.76924
G1 X58.089 Y112.488 E33.88849
G1 X58.043 Y112.119 E33.93353
G1 X58.025 Y112.119 E33.93571
G1 X57.984 Y111.881 E33.96496
G1 X57.784 Y111.228 E34.04768
G1 X57.502 Y110.606 E34.13039
G1 X57.144 Y110.024 E34.21315
G1 X56.716 Y109.492 E34.29585
G1 X56.224 Y109.019 E34.37851
G1 X55.677 Y108.611 E34.46116
G1 X55.081 Y108.276 E34.54397
G1 X54.448 Y108.017 E34.6268
G1 X54.283 Y107.975 E34.64742
G1 X54.289 Y107.955 E34.64995
G1 X53.642 Y107.811 E34.73023
G1 X52.748 Y107.577 E34.84216
G1 X51.743 Y107.241 E34.9705
G1 X51.577 Y107.178 E34.99201
G1 X50.774 Y106.837 E35.09767
G1 X50.585 Y106.749 E35.12292
G1 X49.791 Y106.34 E35.2311
G1 X49.674 Y106.275 E35.24731
G1 X48.895 Y105.8 E35.35782
G1 X48.744 Y105.7 E35.37975
G1 X47.882 Y105.076 E35.50864
G1 X47.191 Y104.5 E35.61759
G1 X47.078 Y104.399 E35.63595
G1 X46.429 Y103.774 E35.74508
G1 X46.309 Y103.649 E35.76606
G1 X45.706 Y102.978 E35.87533
G1 X45.051 Y102.138 E36.00434
G1 X44.454 Y101.248 E36.13414
G1 X43.927 Y100.319 E36.2635
G1 X43.857 Y100.184 E36.28192
G1 X43.474 Y99.367 E36.3912
G1 X43.409 Y99.213 E36.41145
G1 X43.085 Y98.366 E36.52128
G1 X43.028 Y98.201 E36.54243
G1 X42.778 Y97.366 E36.64799
G1 X42.731 Y97.193 E36.66971
G1 X42.53 Y96.292 E36.78152
G1 X42.373 Y95.254 E36.90866
G1 X42.356 Y95.094 E36.92815
G1 X42.289 Y94.192 E37.0377
G1 X42.274 Y93.603 E37.10906
G1 X42.273 Y65.59 E40.5019
G1 X42.319 Y64.449 E40.64021
G1 X42.446 Y63.357 E40.77336
G1 X42.638 Y62.345 E40.89812
G1 X42.869 Y61.46 E41.0089
G1 X42.921 Y61.288 E41.03066
G1 X43.207 Y60.446 E41.13836
G1 X43.271 Y60.28 E41.15991
G1 X43.612 Y59.477 E41.26557
G1 X43.693 Y59.302 E41.28893
G1 X44.109 Y58.494 E41.399
G1 X44.174 Y58.377 E41.41521
G1 X44.649 Y57.598 E41.52572
G1 X44.749 Y57.447 E41.54765
G1 X45.373 Y56.585 E41.67654
G1 X45.949 Y55.894 E41.7855
G1 X46.05 Y55.781 E41.80385
G1 X46.675 Y55.132 E41.91298
G1 X46.8 Y55.012 E41.93397
G1 X47.471 Y54.409 E42.04323
G0 F3600 X48 Y53.996
G1 F1350 X48 Y105.161 E48.24017
G0 F3600 X49.6 Y106.229
G1 F1350 X49.6 Y52.93 E54.69557
G0 F3600 X51.2 Y52.13
G1 F1350 X51.2 Y107.017 E61.3433
G0 F3600 X52.8 Y107.59
G1 F1350 X52.8 Y51.565 E68.12887
G0 F3600 X54.4 Y51.196
G1 F1350 X54.4 Y108.004 E75.00926
G0 F3600 X56 Y108.851
G1 F1350 X56 Y51.013 E82.01441
G0 F3600 X57.6 Y50.977
G1 F1350 X57.6 Y110.822 E89.26264
G0 F3600 X59.2 Y116.662
G1 F1350 X59.2 Y50.977 E97.2182
G0 F3600 X60.8 Y50.977
G1 F1350 X60.8 Y119.462 E105.51287
G0 F3600 X62.4 Y121.304
G1 F1350 X62.4 Y50.977 E114.03065
G0 F3600 X64 Y50.977
G1 F1350 X64 Y122.654 E122.71193
G0 F3600 X65.6 Y123.677
G1 F1350 X65.6 Y50.977 E131.51712
G0 F3600 X67.2 Y50.977
G1 F1350 X67.2 Y124.429 E140.41338
G0 F3600 X68.8 Y124.957
G1 F1350 X68.8 Y50.977 E149.3736
G0 F3600 X70.4 Y50.977
G1 F1350 X70.4 Y125.299 E158.37524
G0 F3600 X72 Y125.822
G1 F1350 X72 Y50.977 E167.44022
G0 F3600 X73.6 Y50.977
G1 F1350 X73.6 Y127.049 E176.65381
G0 F3600 X75.2 Y131.295
G1 F1350 X75.2 Y50.977 E186.38166
G0 F3600 X76.8 Y50.977
G1 F1350 X76.8 Y135.171 E196.57896
G0 F3600 X78.4 Y137.377
G1 F1350 X78.4 Y50.977 E207.04345
G0 F3600 X80 Y50.977
G1 F1350 X80 Y138.936 E217.69675
G0 F3600 X81.6 Y140.1
G1 F1350 X81.6 Y50.977 E228.49104
G0 F3600 X83.2 Y50.977
G1 F1350 X83.2 Y140.975 E239.3913
G0 F3600 X84.8 Y141.597
G1 F1350 X84.8 Y50.977 E250.3669
G0 F3600 X86.4 Y51.069
G1 F1350 X86.4 Y142.028 E261.38356
G0 F3600 X88 Y142.267
G1 F1350 X88 Y51.322 E272.39852
G0 F3600 X89.6 Y51.777
G1 F1350 X89.6 Y142.576 E283.39579
G0 F3600 X91.2 Y143.465
G1 F1350 X91.2 Y52.424 E294.42238
G0 F3600 X92.8 Y53.321
G1 F1350 X92.8 Y145.574 E305.59576
G0 F3600 X94.4 Y150.079
G1 F1350 X94.4 Y54.523 E317.16919
G0 F3600 X96 Y56.13
G1 F1350 X96 Y152.515 E328.84303
G0 F3600 X97.6 Y154.213
G1 F1350 X97.6 Y58.448 E340.44177
G0 F3600 X99.2 Y62.787
G1 F1350 X99.2 Y155.46 E351.66602
G0 F3600 X100.8 Y156.39
G1 F1350 X100.8 Y66.998 E362.49289
G0 F3600 X102.4 Y68.175
G1 F1350 X102.4 Y157.078 E373.26053
G0 F3600 X104 Y157.557
G1 F1350 X104 Y68.681 E384.0249
G0 F3600 X105.6 Y69.163
G1 F1350 X105.6 Y157.835 E394.76456
G0 F3600 X107.2 Y157.947
G1 F1350 X107.2 Y69.86 E405.43337
G0 F3600 X108.8 Y70.8
G1 F1350 X108.8 Y157.954 E415.98917
G0 F3600 X110.4 Y157.954
G1 F1350 X110.4 Y72.054 E426.3931
G0 F3600 X112 Y73.769
G1 F1350 X112 Y157.954 E436.58931
G0 F3600 X113.6 Y157.892
G1 F1350 X113.6 Y76.236 E446.47922
