;FLAVOR:Marlin
;TIME:1634
;Filament used: 1.68989m
;Layer height: 0.2
;Generated with Cura_SteamEngine 3.2.1
M190 S50
M104 S190
M109 S190
M82 ;absolute extrusion mode
G21 ;metric values
G90 ;absolute positioning
M82 ;set extruder to absolute mode
M107 ;start with the fan off
G28 X0 Y0 ;move X/Y to min endstops
G28 Z0 ;move Z to min endstops
G1 Z15.0 F9000 ;move the platform down 15mm
G92 E0 ;zero the extruded length
G1 F200 E3 ;extrude 3mm of feed stock
G92 E0 ;zero the extruded length again
G1 F9000
;Put printing message on LCD screen
M117 Printing...
;LAYER_COUNT:140
;LAYER:-6
M107
G0 F3600 X72.522 Y83.133 Z0.36
G1 F1350 X73.35 Y82.487 E0.1272
G1 X73.509 Y82.374 E0.15082
G1 X74.247 Y81.884 E0.25811
G1 X75.167 Y81.362 E0.38623
G1 X75.317 Y81.284 E0.4067
G1 X76.132 Y80.901 E0.51577
G1 X77.134 Y80.512 E0.64595
G1 X77.284 Y80.46 E0.66518
G1 X78.134 Y80.205 E0.77266
G1 X78.307 Y80.158 E0.79438
G1 X79.202 Y79.958 E0.90545
G1 X80.237 Y79.801 E1.03224
G1 X80.406 Y79.783 E1.05282
G1 X81.479 Y79.708 E1.1831
G1 X81.984 Y79.7 E1.24427
G1 X114.718 Y79.701 E5.20891
G1 X115.842 Y79.746 E5.34515
G1 X116.934 Y79.873 E5.4783
G1 X117.946 Y80.065 E5.60306
G1 X118.84 Y80.299 E5.71498
G1 X119.845 Y80.635 E5.84333
G1 X120.011 Y80.698 E5.86483
G1 X120.814 Y81.039 E5.9705
G1 X121.003 Y81.127 E5.99575
G1 X121.797 Y81.536 E6.10392
G1 X121.914 Y81.601 E6.12013
G1 X122.693 Y82.076 E6.23064
G1 X122.844 Y82.176 E6.25258
G1 X123.706 Y82.8 E6.38146
G1 X124.511 Y83.478 E6.50893
G1 X125.279 Y84.222 E6.63844
G1 X128.598 Y87.661 E7.21731
G1 X129.237 Y88.374 E7.33327
G1 X129.334 Y88.49 E7.35158
G1 X129.979 Y89.33 E7.47985
G1 X130.567 Y90.227 E7.60976
G1 X131.026 Y91.042 E7.72304
G1 X131.468 Y91.975 E7.84808
G1 X131.543 Y92.153 E7.87148
G1 X131.854 Y92.962 E7.97645
G1 X131.914 Y93.137 E7.99886
G1 X132.216 Y94.153 E8.12724
G1 X132.412 Y95.033 E8.23643
G1 X132.442 Y95.196 E8.2565
G1 X132.57 Y96.059 E8.36217
G1 X132.593 Y96.267 E8.38752
G1 X132.658 Y97.144 E8.49403
G1 X132.665 Y97.32 E8.51536
G1 X132.667 Y98.204 E8.62243
G1 X132.661 Y98.379 E8.64364
G1 X132.579 Y99.433 E8.77168
G1 X132.447 Y100.333 E8.88185
G1 X132.415 Y100.509 E8.90352
G1 X132.182 Y101.534 E9.03083
G1 X131.87 Y102.555 E9.16013
G1 X131.485 Y103.55 E9.28935
G1 X131.109 Y104.353 E9.39674
G1 X131.02 Y104.528 E9.42052
G1 X130.596 Y105.285 E9.52561
G1 X130.494 Y105.453 E9.54941
G1 X130.01 Y106.187 E9.6559
G1 X129.909 Y106.328 E9.67691
G1 X129.368 Y107.032 E9.78444
G1 X129.254 Y107.169 E9.80603
G1 X128.54 Y107.961 E9.93518
G1 X128.218 Y108.284 E9.99042
G1 X120.053 Y116.168 E11.3651
G1 X119.284 Y116.86 E11.4904
G1 X118.477 Y117.494 E11.6147
G1 X118.292 Y117.626 E11.64222
G1 X117.565 Y118.108 E11.74787
G1 X117.417 Y118.198 E11.76885
G1 X116.509 Y118.704 E11.89475
G1 X115.665 Y119.101 E12.00771
G1 X115.516 Y119.164 E12.02731
G1 X114.684 Y119.483 E12.13523
G1 X114.533 Y119.534 E12.15453
G1 X113.662 Y119.797 E12.26473
G1 X113.501 Y119.839 E12.28488
G1 X112.605 Y120.041 E12.39613
G1 X111.591 Y120.195 E12.52035
G1 X111.38 Y120.218 E12.54605
G1 X110.36 Y120.29 E12.6699
G1 X109.82 Y120.3 E12.73531
G1 X81.921 Y120.299 E16.11435
G1 X80.797 Y120.254 E16.25059
G1 X79.705 Y120.127 E16.38374
G1 X78.693 Y119.935 E16.5085
G1 X77.799 Y119.701 E16.62043
G1 X76.794 Y119.365 E16.74877
G1 X76.628 Y119.302 E16.77028
G1 X75.825 Y118.961 E16.87594
G1 X75.636 Y118.873 E16.90119
G1 X74.842 Y118.464 E17.00937
G1 X74.725 Y118.399 E17.02558
G1 X73.946 Y117.924 E17.13608
G1 X73.788 Y117.819 E17.15906
G1 X72.933 Y117.2 E17.2869
G1 X72.242 Y116.624 E17.39586
G1 X72.129 Y116.523 E17.41422
G1 X71.48 Y115.898 E17.52334
G1 X71.36 Y115.773 E17.54433
G1 X70.757 Y115.102 E17.65359
G1 X70.102 Y114.262 E17.78261
G1 X69.505 Y113.372 E17.9124
G1 X68.98 Y112.446 E18.04133
G1 X68.908 Y112.307 E18.06029
G1 X68.525 Y111.491 E18.16947
G1 X68.46 Y111.337 E18.18971
G1 X68.136 Y110.49 E18.29955
G1 X68.079 Y110.325 E18.32069
G1 X67.829 Y109.49 E18.42626
G1 X67.782 Y109.317 E18.44797
G1 X67.584 Y108.431 E18.55793
G1 X67.554 Y108.261 E18.57883
G1 X67.424 Y107.378 E18.68693
G1 X67.407 Y107.218 E18.70642
G1 X67.339 Y106.306 E18.81719
G1 X67.325 Y105.728 E18.88721
G1 X67.324 Y94.314 E20.26964
G1 X67.37 Y93.173 E20.40795
G1 X67.497 Y92.081 E20.5411
G1 X67.689 Y91.069 E20.66585
G1 X67.92 Y90.184 E20.77663
G1 X67.972 Y90.012 E20.7984
G1 X68.258 Y89.17 E20.9061
G1 X68.322 Y89.004 E20.92765
G1 X68.663 Y88.201 E21.03331
G1 X68.744 Y88.026 E21.05666
G1 X69.16 Y87.218 E21.16674
G1 X69.225 Y87.101 E21.18295
G1 X69.7 Y86.322 E21.29345
G1 X69.8 Y86.171 E21.31539
G1 X70.424 Y85.309 E21.44427
G1 X71 Y84.618 E21.55323
G1 X71.101 Y84.505 E21.57159
G1 X71.726 Y83.856 E21.68071
G1 X71.851 Y83.736 E21.7017
G1 X72.522 Y83.133 E21.81096
G0 F3600 X72 Y83.602
G1 F1350 X72 Y116.398 E25.78311
G0 F3600 X73.6 Y117.682
G1 F1350 X73.6 Y82.313 E30.06689
G0 F3600 X75.2 Y81.344
G1 F1350 X75.2 Y118.648 E34.58502
G0 F3600 X76.8 Y119.367
G1 F1350 X76.8 Y80.641 E39.27539
G0 F3600 X78.4 Y80.137
G1 F1350 X78.4 Y119.858 E44.08627
G0 F3600 X80 Y120.161
G1 F1350 X80 Y79.836 E48.9703
G0 F3600 X81.6 Y79.706
G1 F1350 X81.6 Y120.286 E53.88522
G0 F3600 X83.2 Y120.299
G1 F1350 X83.2 Y79.701 E58.80231
G0 F3600 X84.8 Y79.701
G1 F1350 X84.8 Y120.299 E63.71941
G0 F3600 X86.4 Y120.299
G1 F1350 X86.4 Y79.701 E68.63651
G0 F3600 X88 Y79.701
G1 F1350 X88 Y120.299 E73.5536
G0 F3600 X89.6 Y120.299
G1 F1350 X89.6 Y79.701 E78.4707
G0 F3600 X91.2 Y79.701
G1 F1350 X91.2 Y120.299 E83.3878
G0 F3600 X92.8 Y120.299
G1 F1350 X92.8 Y79.701 E88.30489
G0 F3600 X94.4 Y79.701
G1 F1350 X94.4 Y120.299 E93.22199
G0 F3600 X96 Y120.299
G1 F1350 X96 Y79.701 E98.13909
G0 F3600 X97.6 Y79.701
G1 F1350 X97.6 Y120.299 E103.05618
G0 F3600 X99.2 Y120.299
G1 F1350 X99.2 Y79.701 E107.97328
G0 F3600 X100.8 Y79.701
G1 F1350 X100.8 Y120.299 E112.89038
G0 F3600 X102.4 Y120.299
G1 F1350 X102.4 Y79.701 E117.80747
G0 F3600 X104 Y79.701
G1 F1350 X104 Y120.299 E122.72457
G0 F3600 X105.6 Y120.299
G1 F1350 X105.6 Y79.701 E127.64167
G0 F3600 X107.2 Y79.701
G1 F1350 X107.2 Y120.299 E132.55876
G0 F3600 X108.8 Y120.299
G1 F1350 X108.8 Y79.701 E137.47586
G0 F3600 X110.4 Y79.701
G1 F1350 X110.4 Y120.288 E142.39162
G0 F3600 X112 Y120.133
G1 F1350 X112 Y79.701 E147.28862
G0 F3600 X113.6 Y79.701
G1 F1350 X113.6 Y119.814 E152.14697
G0 F3600 X115.2 Y119.286
G1 F1350 X115.2 Y79.721 E156.93895
G0 F3600 X116.8 Y79.858
G1 F1350 X116.8 Y118.542 E161.62423
G0 F3600 X118.4 Y117.549
G1 F1350 X118.4 Y80.184 E166.14976
G0 F3600 X120 Y80.694
G1 F1350 X120 Y116.216 E170.45207
G0 F3600 X121.6 Y114.675
G1 F1350 X121.6 Y81.435 E174.47799
G0 F3600 X123.2 Y82.434
G1 F1350 X123.2 Y113.13 E178.19579
G0 F3600 X124.8 Y111.585
G1 F1350 X124.8 Y83.758 E181.5661
G0 F3600 X126.4 Y85.384
G1 F1350 X126.4 Y110.04 E184.55236
G0 F3600 X128 Y108.495
G1 F1350 X128 Y87.042 E187.15067
G0 F3600 X129.6 Y88.837
G1 F1350 X129.6 Y106.731 E189.31794
G0 F3600 X131.2 Y104.159
G1 F1350 X131.2 Y91.41 E190.86205
G0 F3600 X70.4 Y85.342
G1 F1350 X70.4 Y114.644 E194.41101
G0 F3600 X68.8 Y112.076
G1 F1350 X68.8 Y87.917 E197.33707
G0 F3600 X69.471 Y113.311
;TIME_ELAPSED:77.305663
;LAYER:-5
M140 S50
G0 X69.471 Y113.311 Z0.66
;TYPE:SUPPORT
G1 F1350 X74.297 Y118.137 E198.02592
G1 X74.724 Y118.398 E198.07643
G1 X74.841 Y118.463 E198.08994
G1 X75.635 Y118.872 E198.18009
G1 X75.825 Y118.96 E198.20122
G1 X76.627 Y119.301 E198.28918
G1 X76.793 Y119.364 E198.3071
G1 X77.01 Y119.436 E198.33018
G1 X68.181 Y110.607 E199.59041
G1 X68.136 Y110.488 E199.60325
G1 X68.078 Y110.324 E199.62081
G1 X67.829 Y109.489 E199.70875
G1 X67.781 Y109.315 E199.72697
G1 X67.631 Y108.643 E199.79646
G1 X78.975 Y119.987 E201.41568
G1 X79.705 Y120.126 E201.49068
G1 X80.636 Y120.234 E201.58528
G1 X67.389 Y106.987 E203.47612
G1 X67.339 Y106.305 E203.54514
G1 X67.324 Y105.727 E203.6035
G1 X67.324 Y105.508 E203.6256
G1 X82.114 Y120.298 E205.73669
G1 X83.529 Y120.298 E205.8795
G1 X67.324 Y104.093 E208.19256
G1 X67.324 Y102.679 E208.33528
G1 X84.943 Y120.298 E210.85017
G1 X86.357 Y120.298 E210.99289
G1 X67.324 Y101.265 E213.70961
G1 X67.324 Y99.851 E213.85232
G1 X87.771 Y120.298 E216.77088
G1 X89.185 Y120.298 E216.91359
G1 X67.324 Y98.437 E220.03397
G1 X67.324 Y97.022 E220.17679
G1 X90.6 Y120.298 E223.49915
G1 X92.014 Y120.298 E223.64186
G1 X67.324 Y95.608 E227.16605
G1 X67.324 Y94.313 E227.29676
G1 X67.328 Y94.198 E227.30837
G1 X93.428 Y120.298 E231.03382
G1 X94.842 Y120.298 E231.17653
G1 X67.405 Y92.861 E235.09282
G1 X67.496 Y92.08 E235.17218
G1 X67.582 Y91.624 E235.21901
G1 X96.257 Y120.298 E239.31194
G1 X97.671 Y120.298 E239.45465
G1 X67.844 Y90.471 E243.71208
G1 X67.919 Y90.183 E243.74212
G1 X67.972 Y90.011 E243.76029
G1 X68.181 Y89.394 E243.82604
G1 X99.085 Y120.298 E248.23719
G1 X100.499 Y120.298 E248.37991
G1 X68.584 Y88.383 E252.93537
G1 X68.662 Y88.2 E252.95545
G1 X68.744 Y88.025 E252.97496
G1 X69.048 Y87.433 E253.04213
G1 X101.913 Y120.298 E257.73319
G1 X103.328 Y120.298 E257.87601
G1 X69.567 Y86.537 E262.69497
G1 X69.7 Y86.321 E262.72057
G1 X69.799 Y86.17 E262.73879
G1 X70.141 Y85.697 E262.79771
G1 X104.742 Y120.298 E267.73656
G1 X106.156 Y120.298 E267.87928
G1 X70.76 Y84.903 E272.93154
G1 X70.999 Y84.617 E272.96916
G1 X71.101 Y84.504 E272.98453
G1 X71.431 Y84.159 E273.03271
G1 X107.57 Y120.298 E278.1911
G1 X108.984 Y120.298 E278.33381
G1 X72.151 Y83.465 E283.59126
G1 X72.521 Y83.132 E283.6415
G1 X72.921 Y82.821 E283.69264
G1 X110.387 Y120.287 E289.04044
G1 X111.379 Y120.217 E289.14082
G1 X111.591 Y120.194 E289.16234
G1 X111.693 Y120.178 E289.17276
G1 X73.737 Y82.222 E294.5905
G1 X74.246 Y81.883 E294.65223
G1 X74.608 Y81.679 E294.69417
G1 X112.902 Y119.973 E300.16015
G1 X113.501 Y119.838 E300.22213
G1 X113.661 Y119.796 E300.23882
G1 X114.028 Y119.685 E300.27752
G1 X75.528 Y81.185 E305.77291
G1 X76.132 Y80.9 E305.84032
G1 X76.511 Y80.753 E305.88135
G1 X115.085 Y119.327 E311.3873
G1 X115.515 Y119.163 E311.43375
G1 X115.664 Y119.1 E311.45008
G1 X116.077 Y118.905 E311.49618
G1 X77.551 Y80.379 E316.99528
G1 X78.133 Y80.204 E317.05662
G1 X78.307 Y80.156 E317.07484
G1 X78.663 Y80.077 E317.11164
G1 X117.009 Y118.423 E322.58505
G1 X117.416 Y118.197 E322.63204
G1 X117.564 Y118.106 E322.64957
G1 X117.89 Y117.89 E322.68904
G1 X79.858 Y79.858 E328.11763
G1 X80.236 Y79.8 E328.15623
G1 X80.405 Y79.782 E328.17339
G1 X81.145 Y79.731 E328.24825
G1 X118.717 Y117.303 E333.61118
G1 X119.283 Y116.86 E333.68373
G1 X119.496 Y116.667 E333.71274
G1 X82.528 Y79.7 E338.98938
G1 X83.942 Y79.7 E339.1321
G1 X120.234 Y115.991 E344.31225
G1 X120.953 Y115.296 E344.41318
G1 X85.356 Y79.7 E349.49414
G1 X86.771 Y79.7 E349.63695
G1 X121.673 Y114.602 E354.61877
G1 X122.393 Y113.907 E354.71978
G1 X88.185 Y79.7 E359.60247
G1 X89.599 Y79.7 E359.74518
G1 X123.112 Y113.212 E364.52867
G1 X123.832 Y112.518 E364.6296
G1 X91.013 Y79.7 E369.31403
G1 X92.428 Y79.7 E369.45685
G1 X124.551 Y111.823 E374.042
G1 X125.271 Y111.128 E374.14301
G1 X93.842 Y79.7 E378.62903
G1 X95.256 Y79.7 E378.77175
G1 X125.99 Y110.433 E383.15857
G1 X126.709 Y109.739 E383.25943
G1 X96.67 Y79.7 E387.54712
G1 X98.084 Y79.7 E387.68983
G1 X127.429 Y109.044 E391.87839
G1 X128.148 Y108.349 E391.97932
G1 X99.499 Y79.7 E396.0686
G1 X100.914 Y79.7 E396.21142
G1 X128.84 Y107.627 E400.19758
G1 X129.253 Y107.169 E400.25982
G1 X129.367 Y107.032 E400.27781
G1 X129.494 Y106.867 E400.29883
G1 X102.328 Y79.7 E404.1765
G1 X103.742 Y79.7 E404.31922
G1 X130.097 Y106.055 E408.08106
G1 X130.493 Y105.452 E408.15388
G1 X130.595 Y105.285 E408.17363
G1 X130.647 Y105.192 E408.18438
G1 X105.156 Y79.7 E411.82297
G1 X106.57 Y79.7 E411.96569
G1 X131.144 Y104.274 E415.47332
G1 X131.484 Y103.549 E415.55414
G1 X131.581 Y103.297 E415.58139
G1 X107.985 Y79.7 E418.9495
G1 X109.399 Y79.7 E419.09221
G1 X131.959 Y102.261 E422.31244
G1 X132.181 Y101.534 E422.38916
G1 X132.267 Y101.155 E422.42839
G1 X110.813 Y79.7 E425.49075
G1 X112.227 Y79.7 E425.63346
G1 X132.499 Y99.972 E428.52704
G1 X132.578 Y99.433 E428.58202
G1 X132.636 Y98.695 E428.65673
G1 X113.641 Y79.7 E431.36803
G1 X114.716 Y79.7 E431.47653
G1 X115.071 Y79.715 E431.51239
G1 X132.663 Y97.308 E434.0235
G1 X132.657 Y97.143 E434.04017
G1 X132.592 Y96.266 E434.12893
G1 X132.569 Y96.059 E434.14995
G1 X132.524 Y95.754 E434.18106
G1 X116.604 Y79.835 E436.45337
G1 X116.933 Y79.872 E436.48679
G1 X117.944 Y80.064 E436.59065
G1 X118.356 Y80.173 E436.63367
G1 X132.164 Y93.98 E438.60451
G1 X131.913 Y93.137 E438.69329
G1 X131.852 Y92.961 E438.71209
G1 X131.541 Y92.152 E438.79957
G1 X131.467 Y91.975 E438.81893
G1 X131.371 Y91.773 E438.84151
G1 X120.506 Y80.908 E440.39235
G1 X120.813 Y81.038 E440.426
G1 X121.002 Y81.127 E440.44708
G1 X121.796 Y81.536 E440.53723
G1 X121.912 Y81.6 E440.5506
G1 X122.692 Y82.076 E440.64283
G1 X122.843 Y82.176 E440.66111
G1 X123.704 Y82.8 E440.76843
G1 X124.385 Y83.372 E440.85819
G1 X124.51 Y83.478 E440.87474
G1 X125.278 Y84.222 E440.98266
G0 F3600 X124.385 Y83.372
G1 F1350 X126.488 Y85.476 E441.28291
G0 F3600 X74.297 Y118.137
G1 F1350 X73.945 Y117.923 E441.32448
G1 X73.788 Y117.818 E441.34355
G1 X72.933 Y117.199 E441.45009
G1 X72.242 Y116.623 E441.54088
G1 X72.129 Y116.522 E441.55618
G1 X71.48 Y115.897 E441.64712
G1 X71.36 Y115.772 E441.66461
G1 X70.757 Y115.101 E441.75566
G1 X70.102 Y114.261 E441.86317
G1 X69.505 Y113.371 E441.97134
G0 F3600 X68.73 Y112.4
;TIME_ELAPSED:186.315466
;LAYER:-4
G0 X68.73 Y112.4 Z0.86
G1 F1800 X124.24 Y112.4 E443.83889
G1 X124.655 Y112 E443.85828
G1 X68.542 Y112 E445.74612
G1 X68.354 Y111.6 E445.76099
G1 X125.069 Y111.6 E447.66908
G1 X125.483 Y111.2 E447.68845
G1 X68.192 Y111.2 E449.61592
G1 X68.04 Y110.8 E449.63032
G1 X125.898 Y110.8 E451.57687
G1 X126.312 Y110.4 E451.59623
G1 X67.894 Y110.4 E453.56162
G1 X67.773 Y110 E453.57568
G1 X126.726 Y110 E455.55907
G1 X127.141 Y109.6 E455.57846
G1 X67.652 Y109.6 E457.57988
G1 X67.633 Y109.535 E457.58216
G1 X67.589 Y109.369 E457.58794
G1 X67.551 Y109.2 E457.59376
G1 X127.555 Y109.2 E459.61251
G1 X127.969 Y108.8 E459.63188
G1 X67.462 Y108.8 E461.66755
G1 X67.388 Y108.467 E461.67902
G1 X67.375 Y108.4 E461.68132
G1 X128.382 Y108.4 E463.73381
G1 X128.681 Y108.101 E463.74804
G1 X128.772 Y108 E463.75261
G1 X67.313 Y108 E465.82031
G1 X67.254 Y107.6 E465.83391
G1 X129.133 Y107.6 E467.91574
G1 X129.398 Y107.307 E467.92903
G1 X129.486 Y107.2 E467.93369
G1 X67.204 Y107.2 E470.02908
G1 X67.174 Y106.8 E470.04257
G1 X129.797 Y106.8 E472.14943
G1 X130.067 Y106.449 E472.16433
G1 X130.102 Y106.4 E472.16636
G1 X67.145 Y106.4 E474.28445
G1 X67.14 Y106.327 E474.28692
G1 X67.131 Y106 E474.29792
G1 X130.371 Y106 E476.42554
G1 X130.635 Y105.6 E476.44166
G1 X67.124 Y105.6 E478.5784
G1 X67.124 Y105.2 E478.59185
G1 X130.867 Y105.2 E480.73639
G1 X131.094 Y104.8 E480.75187
G1 X67.124 Y104.8 E482.90404
G1 X67.124 Y104.4 E482.9175
G1 X131.307 Y104.4 E485.07684
G1 X131.494 Y104 E485.0917
G1 X67.124 Y104 E487.25733
G1 X67.124 Y103.6 E487.27079
G1 X131.68 Y103.6 E489.44268
G1 X131.735 Y103.471 E489.4474
G1 X131.838 Y103.2 E489.45716
G1 X67.124 Y103.2 E491.63436
G1 X67.124 Y102.8 E491.64782
G1 X131.99 Y102.8 E493.83014
G1 X132.054 Y102.632 E493.83619
G1 X132.117 Y102.445 E493.84283
G1 X132.13 Y102.4 E493.8444
G1 X67.124 Y102.4 E496.03144
G1 X67.124 Y102 E496.04489
G1 X132.25 Y102 E498.23596
G1 X132.37 Y101.6 E498.25001
G1 X67.124 Y101.6 E500.44512
G1 X67.124 Y101.2 E500.45858
G1 X132.466 Y101.2 E502.65691
G1 X132.555 Y100.8 E502.6707
G1 X67.124 Y100.8 E504.87203
G1 X67.124 Y100.4 E504.88549
G1 X132.638 Y100.4 E507.08961
G1 X132.644 Y100.368 E507.0907
G1 X132.695 Y100 E507.1032
G1 X67.124 Y100 E509.30924
G1 X67.124 Y99.6 E509.3227
G1 X132.752 Y99.6 E511.53066
G1 X132.795 Y99.298 E511.54092
